!!!COM:	Beethoven
!!!OTL:	Op. 18 no. 1 mvmnt 1
**kern	**kern	**kern	**kern	**dynam
*part4	*part3	*part2	*part1	*part1
*staff4	*staff3	*staff2	*staff1	*
*I"Cello	*I"Viola	*I"Violin II	*I"Violin I	*
*I'Vc.	*I'Vla.	*I'Vln. II	*I'Vln. I	*
!!pagebreak:original
!!pagebreak:original
!!pagebreak:original
!!pagebreak:original
*clefF4	*clefC3	*clefG2	*clefG2	*
*k[b-]	*k[b-]	*k[b-]	*k[b-]	*
*M3/4	*M3/4	*M3/4	*M3/4	*
=1-	=1-	=1-	=1-	=1-
(>[4F	(<[4F	(<[4f	[4f	.
8FL]	8FL]	8fL]	(<8fL]	.
16GL	16GL	16gL	16gL	.
16FJJ)	16FJJ	16fJJ	16fJJ)	.
8E'L	8E'L)	8e'L)	8e'L	.
8F'J	8F'J	8f'J	8f'J	.
=2	=2	=2	=2	=2
4C	4C	4c	4c	.
4r	4r	4r	4r	.
4r	4r	4r	4r	.
=3	=3	=3	=3	=3
(>[4F	[4F	(<[4f	[4f	.
8FL]	(<8FL]	8fL]	(<8fL]	.
16GL	16GL	16gL	16gL	.
16FJJ)	16FJJ)	16fJJ	16fJJ)	.
8E'L	8E'L	8e'L)	8e'L	.
8F'J	8F'J	8f'J	8f'J	.
=4	=4	=4	=4	=4
4D	4D	4d	4d	.
4r	4r	4r	4r	.
4r	4r	4r	4r	.
=5	=5	=5	=5	=5
(>2.D	(>2.d	[2.b-	[4ff	.
.	.	.	(>8ffL]	.
.	.	.	16ggL	.
.	.	.	16ffJJ	.
.	.	.	8ee'L)	.
.	.	.	8ff'J	[
=6	=6	=6	=6	=6
2.E)	[2.c)	(>2b-]	(>2gg	.
.	.	4g)	4b-)	.
=7	=7	=7	=7	=7
!!linebreak:original
!!linebreak:original
!!linebreak:original
!!linebreak:original
(>4F	(>4c]	(<2f	(>2a	.
4D	4d	.	.	.
4BB-)	4G)	8.b-L	8.ddL)	.
.	.	16gJk)	16b-Jk	.
=8	=8	=8	=8	=8
2.C	(>8cL	(<2f	(<2a	.
.	8Bn	.	.	.
.	8c	.	.	.
.	8BJ	.	.	.
.	4c)	4e)	4g)	.
=9	=9	=9	=9	=9
(>[4F	[4F	(<[4f	[4f	.
8FL]	(<8FL]	8fL]	(<8fL]	.
16GL	16GL	16gL	16gL	.
16FJJ)	16FJJ)	16fJJ	16fJJ)	.
8E'L	8E'L	8e'L)	8e'L	.
8F'J	8F'J	8f'J	8f'J	.
=10	=10	=10	=10	=10
4C	4C	4c	4c	.
4r	4r	4r	4r	.
4r	4r	4r	4r	.
=11	=11	=11	=11	=11
(>[4F	[4F	(<[4f	[4f	.
8FL]	(<8FL]	8fL]	(<8fL]	.
16GL	16GL	16gL	16gL	.
16FJJ)	16FJJ)	16fJJ	16fJJ)	.
8E'L	8E'L	8e'L)	8e'L	.
8F'J	8G'J	8f'J	8f'J	.
=12	=12	=12	=12	=12
4D	4D	4d	4d	.
4r	4r	4r	4r	.
4r	4r	4r	4r	.
=13	=13	=13	=13	=13
!!linebreak:original
!!linebreak:original
!!linebreak:original
!!linebreak:original
4%3r	4%3r	4%3r	[4ff	.
.	.	.	(>8ffL]	.
.	.	.	16ggL	.
.	.	.	16ffJJ)	.
.	.	.	8ee'L	.
.	.	.	8ff'J	.
=14	=14	=14	=14	=14
2.c#X	2.b-	2.ee	(>2aa	.
.	.	.	4gg)	>
=15	=15	=15	=15	=15
4%3r	4%3r	4%3r	[4gg	.
.	.	.	(>8ggL]	.
.	.	.	16aaL	.
.	.	.	16ggJJ)	.
.	.	.	8ff#X'L	.
.	.	.	8gg'J	.
=16	=16	=16	=16	=16
2.f#X	2.ee-X	2.cc	(>2bb-	.
.	.	.	4aa)	[
=17	=17	=17	=17	=17
4%3r	4%3r	4%3r	[4aa	.
.	.	.	(>8aaL]	.
.	.	.	16bb-L	.
.	.	.	16aaJJ)	.
.	.	.	8gg'L	.
.	.	.	8aa'J	.
=18	=18	=18	=18	=18
!LO:TX:Bi:t=Cresc.	!	!	!	!
!LO:TX:Bi:t=Cresc.	!	!	!	!
!LO:TX:Bi:t=Cresc.	!	!	!	!
!LO:TX:Bi:t=Cresc.	!	!	!	!
4.B-	(>4.f#X	(>4.ee-X	(>4.ccc	.
(>8B-~L	8gL	8ddL	8bb-L	.
8B-~	8a)	8cc	8aa	.
8B-~J)	8b-J	8b-J)	8ggJ)	.
=19	=19	=19	=19	=19
!!pagebreak:original
!!pagebreak:original
!!pagebreak:original
!!pagebreak:original
(>2c	(>2cc	(>2a	(>2ff	.
.	.	16qb-/LL	16qgg/LL	.
.	.	16qa/	16qff/	.
.	.	16qg/	16qee/	.
.	.	16qa/JJ	16qff/JJ	.
4C)	4e)	8ccL	8aaL	.
.	.	8b-J	8ggJ)	.
=20	=20	=20	=20	=20
4F	4f	4a)	4ff	.
4r	4r	4r	4r	.
4r	4r	4r	4r	.
=21	=21	=21	=21	=21
4%3r	4%3r	(<[4c	4%3r	.
.	.	8cL]	.	.
.	.	16dL	.	.
.	.	16cJJ)	.	.
.	.	8Bn'L	.	.
.	.	8c'J	.	.
=22	=22	=22	=22	=22
2.Bn	2.a-X	(<2e-X	(>4.ff	.
.	.	.	16ggLL	.
.	.	.	16ffJJ)	.
.	.	4d)	8ee'L	.
.	.	.	8ff'J	.
=23	=23	=23	=23	=23
4%3r	4%3r	(<[4d	4%3r	.
.	.	8dL]	.	.
.	.	16e-XL	.	.
.	.	16dJJ)	.	.
.	.	8c#X'L	.	.
.	.	8d'J	.	.
=24	=24	=24	=24	=24
!!linebreak:original
!!linebreak:original
!!linebreak:original
!!linebreak:original
2.C	2.B-	(<2f	(>4.gg	.
.	.	.	16aaLL	.
.	.	.	16ggJJ)	.
.	.	4en)	8ff#X'L	.
.	.	.	8gg'J	.
=25	=25	=25	=25	=25
4%3r	4%3r	(<[4g	4%3r	.
.	.	8gL]	.	.
.	.	16aL	.	.
.	.	16gJJ)	.	.
.	.	8f#X'L	.	.
.	.	8g'J	.	.
=26	=26	=26	=26	=26
2F	2e-X	(>2b-	(>4.ccc	.
.	.	.	16dddLL	.
.	.	.	16cccJJ)	.
4FF	4e-	4a')	8bbn'L	.
.	.	.	8ccc'J	.
=27	=27	=27	=27	=27
2B-	(>2f#X	(>2cc	(>4.ddd	.
.	.	.	16eee-XLL	.
.	.	.	16dddJJ)	.
4BB-	4g')	4b-')	8ccc#X'L	.
.	.	.	8ddd'J	.
=28	=28	=28	=28	=28
4C'	4B-'	(<8aL	4eeen'	.
.	.	8g)	.	.
4C'	4B-'	(<8a	4eee'	.
.	.	8g)	.	.
4C'	4B-'	(<8a	4eee'	.
.	.	8gJ)	.	.
=29	=29	=29	=29	=29
!!linebreak:original
!!linebreak:original
!!linebreak:original
!!linebreak:original
4FF	8AL	8fL	4fff	.
.	8cJ	8A 8f	.	.
4r	8cL	8A 8f	4r	.
.	8c	8A 8f	.	.
4r	8c	8A 8f	4r	.
.	8cJ	8AJ 8f	.	.
=30	=30	=30	=30	=30
(<4.C	8cL	2.A 2.f	4r	.
.	8c	.	.	.
.	8c	.	8r	.
16DLL	8c	.	8a	.
16CJJ)	.	.	.	.
8BBn'L	8c	.	4a	.
8C'J	8cJ	.	.	.
=31	=31	=31	=31	=31
4CC	2.c	2.G 2.e	(>4.cc	.
4r	.	.	.	.
.	.	.	8b-L)	.
4r	.	.	8g'	.
.	.	.	8f'J	.
=32	=32	=32	=32	=32
4.C	2.c	2.G 2.e	4e	.
.	.	.	8r	.
16DLL	.	.	8b-	.
16CJJ	.	.	.	.
8BBn'L	.	.	4b-	.
8C'J	.	.	.	.
=33	=33	=33	=33	=33
4CC	2.c	2.A 2.f	(>4.dd	.
4r	.	.	.	.
.	.	.	8ccL)	.
4r	.	.	8a'	.
.	.	.	8g'J	.
=34	=34	=34	=34	=34
!!pagebreak:original
!!pagebreak:original
!!pagebreak:original
!!pagebreak:original
(<4.C	2.c	2.A 2.f	4f	.
.	.	.	8r	.
16DLL	.	.	8ff	.
16CJJ)	.	.	.	.
8BBn'L	.	.	4ff	.
8C'J	.	.	.	.
=35	=35	=35	=35	=35
4CC	2.e	2.B- 2.g	(>4.aa	.
4r	.	.	.	.
.	.	.	8ggL)	.
4r	.	.	8gg'	.
.	.	.	8ff'J	.
=36	=36	=36	=36	=36
(>4.C	2.e	2.B- 2.g	(>8ffL	.
.	.	.	8eeJ)	.
.	.	.	8ee'L	.
16DLL	.	.	8dd'	.
16CJJ	.	.	.	.
8BBn'L	.	.	8cc'	.
8C'J	.	.	8b-'J	.
=37	=37	=37	=37	=37
4C#X'	8eL	2.A 2.g	[2.a	.
.	8e	.	.	.
4AA'	8c#X	.	.	.
.	8c#	.	.	.
4C#'	8e	.	.	.
.	8eJ	.	.	.
=38	=38	=38	=38	=38
!!linebreak:original
!!linebreak:original
!!linebreak:original
!!linebreak:original
4D	8dL	2.A 2.f	8aL]	.
.	8d	.	(>16bnL	.
.	.	.	16cc#XJJ	.
4r	8d	.	16ddLL	.
.	.	.	16ee	.
.	8d	.	16ff	.
.	.	.	16eeJJ	.
4r	8d	.	16ddLL	.
.	.	.	16ccn	.
.	8dJ	.	16b	.
.	.	.	16aJJ)	.
=39	=39	=39	=39	=39
4BBn	8dL	2.G 2.f	[2.g	.
.	8d	.	.	.
4GG'	8Bn	.	.	.
.	8B	.	.	.
4BB'	8d	.	.	.
.	8dJ	.	.	.
=40	=40	=40	=40	=40
4C	8cL	2.G 2.e-X	8gL]	.
.	8c	.	(>16aL	.
.	.	.	16bnJJ	.
4r	8c	.	16ccLL	.
.	.	.	16b	.
.	8c	.	16cc	.
.	.	.	16bJJ	.
4r	8c	.	16ccLL	.
.	.	.	16b	.
.	8cJ	.	16cc	.
.	.	.	16bJJ)	.
=41	=41	=41	=41	=41
[2.AA-X	(<4.E-X	[2.c [2.e-X	[2.cc	.
.	16FLL	.	.	.
.	16E-JJ)	.	.	.
.	8D'L	.	.	.
.	8E-'J	.	.	.
=42	=42	=42	=42	=42
!!linebreak:original
!!linebreak:original
!!linebreak:original
!!linebreak:original
2.AAn	2.E-X	4c] 4en	(>4.cc]	.
.	.	(<4c'	.	.
.	.	.	16dd-XLL	.
.	.	.	16ccJJ)	.
.	.	4c')	8b-'L	.
.	.	.	8cc'J	.
=43	=43	=43	=43	=43
[2.BB-	(<4.E-X	(<2.d-X	(>4.ee-X	.
.	16FLL	.	8dd-XL)	.
.	16E-JJ	.	.	.
.	8D'L)	.	8b-'	.
.	8E-'J	.	8a-X'J	.
=44	=44	=44	=44	=44
2.BB-]	2.E-X	4dn)	4g	.
.	.	(<4d-X'	8r	.
.	.	.	(>16ee-XLL	.
.	.	.	16dd-XJJ)	.
.	.	4d-')	8cc'L	.
.	.	.	8dd-'J	.
=45	=45	=45	=45	=45
[2.C	(<4.E-X	[2.e-X	(>4.ff	.
.	16FLL	.	8ee-X)	.
.	16E-JJ	.	.	.
.	8D'L)	.	8cc'L	.
.	8E-'J	.	8b-'J	.
=46	=46	=46	=46	=46
4C']	4E-X	4en	4a	.
!LO:TX:Bi:t=Cresc.	!	!	!	!
!LO:TX:Bi:t=Cresc.	!	!	!	!
!LO:TX:Bi:t=Cresc.	!	!	!	!
4C'	4a	(<4g-X'	8r	.
!	!	!	!LO:TX:Bi:t=Cresc.	!
.	.	.	(>16ffLL	.
.	.	.	16ee-XJJ)	.
4C'	4a	4g-')	8dd'L	.
.	.	.	8ee-'J	.
=47	=47	=47	=47	=47
2.D	2.Bn	2.a-X	2.ff	.
=48	=48	=48	=48	=48
!!pagebreak:original
!!pagebreak:original
!!pagebreak:original
!!pagebreak:original
4E-X'	4c'	4g'	4ee-X'	.
4F'	4f'	4a-X'	4dd'	.
4F#X'	4e-X'	4an'	4cc'	.
=49	=49	=49	=49	=49
4G	4d	4g	16bnLL	.
.	.	.	16g'	p
.	.	.	16a'	.
.	.	.	16b'JJ	.
4r	8r	8r	16cc'LL	.
.	.	.	16dd'	.
.	8Bn'L	8d'L	16een'	.
.	.	.	16ff#X'JJ	.
4r	8B'	8d'	16gg'LL	.
.	.	.	16ff#'	.
.	8c'J	8e-X'J	16gg'	.
.	.	.	16ff#'JJ	.
=50	=50	=50	=50	=50
16G'LL	4B-X	4d	4gg	.
16GG'	.	.	.	.
16AA'	.	.	.	.
16BB-'JJ	.	.	.	.
16C'LL	8r	8r	8r	.
16D'	.	.	.	.
16E'	8g'L	8dd'L	8bbn'L	.
16F#X'JJ	.	.	.	.
16G'LL	8g'	8dd'	8bb'	.
16F#'	.	.	.	.
16G'	8g'J	8ee-X'J	8ccc'J	.
16F#'JJ	.	.	.	.
=51	=51	=51	=51	=51
4G	4g	4dd	16bbnLL	.
!	!	!	!LO:TX:Bi:t=Cresc.	!
.	.	.	16g	.
.	.	.	16a	.
.	.	.	16bnJJ	.
4r	8r	8r	16ccLL	.
.	.	.	16dd	.
!	!LO:TX:Bi:t=Cresc.	!	!	!
!	!LO:TX:Bi:t=Cresc.	!	!	!
.	8Bn'L	8d'L	16ee	.
.	.	.	16ff#XJJ	.
4r	8B'	8d'	16ggLL	.
.	.	.	16ff#	.
.	8c'J	8e-X'J	16gg	.
.	.	.	16ff#JJ	.
=52	=52	=52	=52	=52
!!linebreak:original
!!linebreak:original
!!linebreak:original
!!linebreak:original
16G'LL	4Bn	4d	4gg	.
16GG'	.	.	.	.
16AA'	.	.	.	.
16BBn'JJ	.	.	.	.
16CLL	8r	8r	8r	.
16D'	.	.	.	.
16E'	8g'L	8dd'L	8bbn'L	.
16F#X'JJ	.	.	.	.
16G'LL	8g'	8dd'	8bb'	.
16F#'	.	.	.	.
16G'	8g'J	8ee-X'J	8ccc'J	.
16F#'JJ	.	.	.	.
=53	=53	=53	=53	=53
4G	4g	4dd	8bbn	.
!	!	!	!LO:TX:Bi:t=Cresc.	!
.	.	.	16GLL	.
.	.	.	16A	.
8r	8r	8r	16BnJJ	.
.	.	.	16cLL	.
!LO:TX:Bi:t=Cresc.	!	!	!	!
!LO:TX:Bi:t=Cresc.	!	!	!	!
!LO:TX:Bi:t=Cresc.	!	!	!	!
8G'L	8Bn'L	8dd'L	16d	.
.	.	.	16e	.
8G'	8B'	8dd'	16f#XJJ	.
.	.	.	16gLL	.
8C'J	8c'J	8ee-X'J	16f#	.
.	.	.	16gJJ	.
=54	=54	=54	=54	=54
16G'LL	16BnLL	16ddLL	16gLL	.
16GG'	16G	16G	16g	.
16AA'	16A	16A	16a	.
16BBn'JJ	16BJJ	16BnJJ	16bnJJ	.
16C'LL	16cLL	16cLL	16ccLL	.
16D'	16d	16d	16dd	.
16E	16e	16en	16ee	.
16F#X'JJ	16f#XJJ	16f#XJJ	16ff#XJJ	.
16GLL	16gLL	16gLL	16ggLL	.
16F#'	16f#	16f#	16ff#	.
16G'	16g	16g	16gg	.
16F#'JJ	16f#JJ	16f#JJ	16ff#JJ	.
=55	=55	=55	=55	=55
!!linebreak:original
!!linebreak:original
!!linebreak:original
!!linebreak:original
4G	4g	4g	8gg	.
.	.	.	4gg	.
4r	4r	4r	.	.
.	.	.	4gg	.
4r	4r	4r	.	.
.	.	.	[8gg	.
=56	=56	=56	=56	=56
!LO:TX:Bi:t=Decresc.	!	!	!	!
4%3r	4%3r	4%3r	8gg#X	.
.	.	.	4gg#X	.
.	.	.	4gg#	.
.	.	.	(>8gg#	.
=57	=57	=57	=57	=57
4%3r	4%3r	4%3r	8aa)	.
.	.	.	(>8aaL	.
.	.	.	8ffJ)	.
.	.	.	(>8ffL	.
.	.	.	8ddJ)	.
.	.	.	(>8dd	.
=58	=58	=58	=58	=58
4%3r	4r	4r	8bn)	.
.	.	.	(<8bL	.
.	4r	4r	8gJ)	.
.	.	.	(<8gL	.
.	8f'L	8g'L	8bJ)	.
.	8fJ	[8gJ	(>8b	.
=59	=59	=59	=59	=59
4%3r	(>8e	8g]	8cc)	.
.	8eL	(<8gL	(>8ccL	.
.	8dJ)	8bnJ)	8ddJ)	.
.	8dL)	(>8bL)	(>8ddL	.
.	8cJ	8ccJ	8eeJ)	.
.	8c	8cc	(>8ee	.
=60	=60	=60	=60	=60
4%3r	2Bn	4ee	4gg	.
.	.	4dd	4ff	.
.	(>8e'L	4r	4r	.
.	8eJ	.	.	.
=61	=61	=61	=61	=61
!!pagebreak:original
!!pagebreak:original
!!pagebreak:original
!!pagebreak:original
4%3r	8f)	4%3r	4%3r	.
.	8fL	.	.	.
.	8dJ)	.	.	.
.	(>8dL	.	.	.
.	8BnJ)	.	.	.
.	(<8B	.	.	.
=62	=62	=62	=62	=62
4%3r	8G#X)	4r	4r	.
.	(<8G#L	.	.	.
.	8eJ)	4r	4r	.
.	8eL	.	.	.
.	8dJ)	4bn	4gg#X	.
.	(>8d	.	.	.
=63	=63	=63	=63	=63
4%3r	8c)	4ee	4aa	.
.	(<8cL	.	.	.
.	8AJ)	4e	4ccc	.
.	(<8AL	.	.	.
.	8dJ)	[4cc)	4ff#X)	.
.	(>8d	.	.	.
=64	=64	=64	=64	=64
4r	8G)	(>4cc]	(>4aa	.
.	(>8GL	.	.	.
8r	8gJ)	8b-)	8gg)	.
8F#XL	8r	8r	8r	.
8G	4r	4r	4r	.
8G#XJ	.	.	.	.
=65	=65	=65	=65	=65
8A')	4%3r	4%3r	4%3r	.
8AL)	.	.	.	.
8FnJ	.	.	.	.
(>8FL	.	.	.	.
8DJ)	.	.	.	.
8D	.	.	.	.
=66	=66	=66	=66	=66
!!linebreak:original
!!linebreak:original
!!linebreak:original
!!linebreak:original
8BBn)	4r	4r	4r	.
(<8BBL	.	.	.	.
8GGJ)	4r	4r	4r	.
(<8GGL	.	.	.	.
8BBJ)	8G'L	8d'L	8ff'L	.
8BB	[8GJ	(<8dJ)	(>8ffJ	.
=67	=67	=67	=67	=67
8C)	8G]	(<8e)	8ee)	.
(<8CL	(>8gL	(>8ccL	(>8eeL	.
8DJ)	8fJ)	8b-J)	8ddJ)	.
8DL	(>8fL	(<8b-L	(>8ddL	.
8EJ)	8eJ)	8gJ)	8ccJ)	.
8E	8e	8g	8cc'	.
=68	=68	=68	=68	=68
4.F	4.d	4.a-X	(>4cc	.
.	.	.	8bn)	.
8r	8r	8r	8r	.
4r	4r	8g'L	4r	.
.	.	(<8gJ	.	.
=69	=69	=69	=69	=69
4%3r	4r	8a-X)	4r	.
.	.	(<8a-L	.	.
.	8a-X'	8fJ)	4r	.
.	(>8a-L	(<8fL	.	.
!	!LO:TX:Bi:t=Cresc.	!	!	!
.	8fJ)	8dJ)	[4aa-X	.
.	(>8f	(<8d	.	.
=70	=70	=70	=70	=70
!LO:TX:Bi:t=Cresc.	!	!	!	!
!LO:TX:Bi:t=Cresc.	!	!	!	!
4%3r	8d)	8BnL)	(>4aan	.
.	(>8dL	(<8BJ	.	.
.	8e-XJ)	8c)	4gg	.
.	(<8cL	(>4ee~	.	.
.	8F#XJ)	.	4ccc)	.
.	(<8F#	8ee-X')	.	.
=71	=71	=71	=71	=71
!!linebreak:original
!!linebreak:original
!!linebreak:original
!!linebreak:original
4%3r	8G)	(>2ee-X	(>2ccc	.
.	(>8GL	.	.	.
.	8gJ)	.	.	.
.	(>8gL	.	.	.
.	8GJ)	8.ffL)	8.dddL	.
.	8G	.	.	.
.	.	16ddJk	16bbnJk)	.
*clefG2	*	*	*	*
=72	=72	=72	=72	=72
(>4.gg	8c	8ccL	4ccc	.
.	8CL	8GJ 8en	.	.
.	8C	8GL 8e	4r	.
16aaLL	8C	8G 8e	.	.
16ggJJ)	.	.	.	.
8ff#X'L	8C	8G 8e	4r	.
8gg'J	8CJ	8GJ 8e	.	.
=73	=73	=73	=73	=73
2.gg	8CL	8GL 8e	(>4.ee	.
.	8C	8GJ 8e	.	.
.	8C	8GL 8e	.	.
.	8C	8GJ 8e	16ffLL	.
.	.	.	16eeJJ)	.
.	8C	8GL 8e	8dd'L	.
.	8CJ	8GJ 8e	8cc'J	.
=74	=74	=74	=74	=74
(>4.gg	2.D	2.G 2.f	4bn	.
.	.	.	4r	.
16aaLL	.	.	.	.
16ggJJ)	.	.	.	.
8ff#X'L	.	.	4r	.
8gg'J	.	.	.	.
=75	=75	=75	=75	=75
2.gg	2.D 2.G	2.Bn	(>4.ff	.
!	!	!	!LO:TX:Bi:t=Cresc.	!
.	.	.	16ggLL	.
.	.	.	16ffJJ)	.
.	.	.	8ee'L	.
.	.	.	8dd'J	.
=76	=76	=76	=76	=76
!!pagebreak:original
!!pagebreak:original
!!pagebreak:original
!!pagebreak:original
!LO:TX:Bi:t=Cresc.	!	!	!	!
!LO:TX:Bi:t=Cresc.	!	!	!	!
!LO:TX:Bi:t=Cresc.	!	!	!	!
(>4.gg	2.E 2.G	2.B-X	4cc#X	.
.	.	.	4r	.
16aaLL	.	.	.	.
16ggJJ)	.	.	.	.
8ff#X'L	.	.	4r	.
8gg'J	.	.	.	.
=77	=77	=77	=77	=77
2.bb-	2.E	2.G 2.g	(>[4bb-	.
.	.	.	8bb-L]	.
.	.	.	16aaL	.
.	.	.	16ggJJ	.
.	.	.	16ffLL	.
.	.	.	16ee	.
.	.	.	16dd	.
.	.	.	16cc#XJJ)	.
=78	=78	=78	=78	=78
4aa	4F'	4A'	16dd'LL	.
.	.	.	16a'	.
.	.	.	16b-'	.
.	.	.	16cc#X'JJ	.
*clefF4	*	*	*	*
4F	4d'	4f' 4a	16ddLL	.
.	.	.	16ee'	.
.	.	.	16ff'	.
.	.	.	16ee'JJ	.
4r	4r	4r	16dd'LL	.
.	.	.	16a'	.
.	.	.	16b-'	.
.	.	.	16cc#'JJ	.
=79	=79	=79	=79	=79
4%3r	4%3r	4%3r	16ddLL	.
.	.	.	16ee	.
.	.	.	16ff	.
.	.	.	16eeJJ	.
.	.	.	16ddLL	.
.	.	.	16a	.
.	.	.	16bn	.
.	.	.	16cc#XJJ	.
.	.	.	16ddLL	.
.	.	.	16ee	.
.	.	.	16ff	.
.	.	.	16eeJJ	.
=80	=80	=80	=80	=80
!!linebreak:original
!!linebreak:original
!!linebreak:original
!!linebreak:original
4r	4r	4r	16ddLL	.
.	.	.	16a	.
.	.	.	16b-X	.
.	.	.	16cc#XJJ	.
4r	4r	4r	16ddLL	.
.	.	.	16ee	.
.	.	.	16ff	.
.	.	.	16eeJJ	.
16r	16r	16r	16ddLL	.
!LO:TX:Bi:t=Cresc.	!	!	!	!
!LO:TX:Bi:t=Cresc.	!	!	!	!
!LO:TX:Bi:t=Cresc.	!	!	!	!
!LO:TX:Bi:t=Cresc.	!	!	!	!
16AALL	16ALL	16ALL	16a	.
16BBn	16Bn	16Bn	16b-	.
16C#XJJ	16c#XJJ	16c#XJJ	16cc#JJ	.
=81	=81	=81	=81	=81
16DLL	16dLL	16dLL	16ddLL	.
16E	16e	16e	16ee	.
16F	16f	16f	16ff	.
16GJJ	16gJJ	16gJJ	16ggJJ	.
16ALL	16aLL	16aLL	16aaLL	.
16G	16g	16g	16gg	.
16F	16f	16f	16ff	.
16EJJ	16eJJ	16eJJ	16eeJJ	.
16DLL	16dLL	16dLL	16ddLL	.
16Cn	16cn	16cn	16ccn	.
16BBn	16Bn	16A	16bn	.
16AAJJ	16AJJ	16BnJJ	16aJJ	.
=82	=82	=82	=82	=82
(>4.GG	4.G	(<4.G	2.g	.
16AALL	(>16ALL	16ALL	.	.
16BBnJJ	16BnJJ	16BnJJ	.	.
16CLL	16cLL	16cLL	.	.
16D	16d	16d	.	.
16E	16e	16e)	.	.
16F#XJJ	16f#XJJ)	16f#XJJ	.	.
=83	=83	=83	=83	=83
!!linebreak:original
!!linebreak:original
!!linebreak:original
!!linebreak:original
8GL)	8gL	8gL	2.dd	.
8G	8fn	8bn	.	.
8G	8f	8b	.	.
8G	8f	8b	.	.
8G	8f	8b	.	.
8GJ	8fJ	8bJ	.	.
=84	=84	=84	=84	=84
4C'	4e	4cc	(>4cc)	.
4r	(<4.E	4.G	(<4.c	.
4r	.	.	.	.
.	8D)	8G	8Bn)	.
=85	=85	=85	=85	=85
4%3r	(<8DL	(<8GL	(<8BnL	.
.	8Bn)	8dJ)	8fJ)	.
.	(<8B	(<8dL	(<8fL	.
.	8c)	8cJ)	8eJ)	.
.	(<8c	(<8cL	8eL	.
.	8FJ)	8cJ)	8aJ)	.
=86	=86	=86	=86	=86
4%3r	(<8FL	8cL	(<8aL	.
.	8E)	8c	8gJ)	.
.	(<8E	(<8c	(<8gL	.
.	8e)	8g)	8ccJ)	.
.	(<8e	(<8g	8ccL	.
.	8dJ)	8fJ)	8bnJ)	.
=87	=87	=87	=87	=87
4%3r	(>8dL	(<8fL	(>8bnL	.
.	8BnJ)	8dJ)	8ffJ)	.
.	4B	4d	4ff	.
.	4r	4r	4r	.
=88	=88	=88	=88	=88
4%3r	4%3r	4%3r	4%3r	.
=89	=89	=89	=89	=89
!!pagebreak:original
!!pagebreak:original
!!pagebreak:original
!!pagebreak:original
!LO:TX:Bi:t=Cresc.	!	!	!	!
!LO:TX:Bi:t=Cresc.	!	!	!	!
!LO:TX:Bi:t=Cresc.	!	!	!	!
2.c	2.g	2.cc	(>4.ee	.
!	!	!	!LO:TX:Bi:t=Cresc.	!
.	.	.	16ffLL	.
.	.	.	16eeJJ)	.
.	.	.	8dd'L	.
.	.	.	8ee'J	.
=90	=90	=90	=90	=90
[2.F#X	[2.d	(>[2.cc	[2.aa	.
=91	=91	=91	=91	=91
(>4F#]	(>4d]	4cc]	(>4aa]	.
4G')	4e')	4cc')	4gg')	.
4GG'	4d'	4f'	4bn'	.
=92	=92	=92	=92	=92
4C'	4c'	(<4e'	4cc'	.
4r	(>4.e	4.g	(>4.cc	.
4r	.	.	.	.
.	8d)	8f)	8bn)	.
=93	=93	=93	=93	=93
4%3r	(>8dL	(<8fL	(>8bnL	.
.	8Bn)	8d)	8ff)	.
.	(>8B	(<8d	(>8ff	.
.	8c)	8e)	8ee)	.
.	8c	(<8e	(>8ee	.
.	8fJ)	8ccJ)	8aaJ)	.
=94	=94	=94	=94	=94
4%3r	(>8fL	8cc'L	(>8aaL	.
.	8e)	(>8cc'	8gg)	.
.	(>8e	8cc	(>8gg	.
.	8ee)	8gg)	8ccc)	.
.	(>8ee	8gg	(>8ccc	.
.	8ddJ)	8ffJ)	8bbnJ)	.
=95	=95	=95	=95	=95
!!linebreak:original
!!linebreak:original
!!linebreak:original
!!linebreak:original
4%3r	(>8ddL	8ffL	(>8bbnL	.
.	8bnJ)	8ddJ	8fffJ)	.
.	4b	4dd	4fff	.
.	4r	4r	4r	.
=96	=96	=96	=96	=96
4%3r	4%3r	4%3r	4%3r	.
=97	=97	=97	=97	=97
2.C	2.c	2.G	2.c 2.e-X	.
=98	=98	=98	=98	=98
2.AA-X	2.A-X	2.A-X	2.c 2.e-X	.
=99	=99	=99	=99	=99
2FF#X	2F#X	2An	2c 2e-X	.
4FFn	4Fn	4A	4c 4e-	.
=100	=100	=100	=100	=100
4EE'	4E	4A'	4c 4en	.
4DD'	(<4A'	(<4d'	(<4f'	.
4GG'	4F')	4Bn')	4d')	.
=101	=101	=101	=101	=101
(<4.C	8EL	8cL	4c	.
.	8c	8G 8e	.	.
.	8c	8G 8e	4r	.
16DLL	8c	8G 8e	.	.
16CJJ)	.	.	.	.
8BBn'L	8c	8G 8e	4r	.
8C'J	8cJ	8GJ 8e	.	.
=102	=102	=102	=102	=102
!!linebreak:original
!!linebreak:original
!!linebreak:original
!!linebreak:original
4CC	2.c	2.G 2.e	4r	.
4r	.	.	4ee	.
4r	.	.	4ee	.
=103	=103	=103	=103	=103
(<4.C	2.d	2.G 2.f	(>4gg	.
.	.	.	4ff)	.
16DLL	.	.	.	.
16CJJ)	.	.	.	.
8BBn'L	.	.	4r	.
8C'J	.	.	.	.
=104	=104	=104	=104	=104
4CC	2.d	2.G 2.f	4r	.
4r	.	.	4bbn	.
4r	.	.	4bb	.
=105	=105	=105	=105	=105
(<16DLL	2.c	2.G 2.e	(>8cccL	.
16C	.	.	.	.
16BBn	.	.	8eeeJ)	.
16CJJ)	.	.	.	.
(<16DLL	.	.	4gg	.
16C	.	.	.	.
16BB	.	.	.	.
16CJJ)	.	.	.	.
(<16DLL	.	.	4r	.
16C	.	.	.	.
16BB	.	.	.	.
16CJJ)	.	.	.	.
=106	=106	=106	=106	=106
4CC	2.c	2.G 2.e	(>16ffLL	.
.	.	.	16ee	.
.	.	.	16dd	.
.	.	.	16eeJJ)	.
4r	.	.	(>16ffLL	.
.	.	.	16ee	.
.	.	.	16dd	.
.	.	.	16eeJJ)	.
4r	.	.	(>16ffLL	.
.	.	.	16ee	.
.	.	.	16dd	.
.	.	.	16eeJJ)	.
=107	=107	=107	=107	=107
!!pagebreak:original
!!pagebreak:original
!!pagebreak:original
!!pagebreak:original
(<16DLL	2.d	2.G 2.f	(>4gg	.
16C	.	.	.	.
16BBn	.	.	.	.
16CJJ)	.	.	.	.
(<16DLL	.	.	4ff)	.
16C	.	.	.	.
16BB	.	.	.	.
16CJJ)	.	.	.	.
(<16DLL	.	.	4r	.
16C	.	.	.	.
16BB	.	.	.	.
16CJJ)	.	.	.	.
=108	=108	=108	=108	=108
4CC	2.d	2.G 2.f	(>16cccLL	.
.	.	.	16bbn	.
.	.	.	16aa	.
.	.	.	16bbJJ)	.
4r	.	.	(>16cccLL	.
.	.	.	16bb	.
.	.	.	16aa	.
.	.	.	16bbJJ)	.
4r	.	.	(>16cccLL	.
.	.	.	16bb	.
.	.	.	16aa	.
.	.	.	16bbJJ)	.
=109	=109	=109	=109	=109
4C'	4c'	4G' 4e	16ccc'LL	.
.	.	.	16eee'	.
.	.	.	16ddd'	.
.	.	.	16ccc'JJ	.
4C'	4G' 4e	4G' 4e 4cc	16bb-X'LL	.
.	.	.	16aa'	.
.	.	.	16gg'	.
.	.	.	16ff'JJ	.
4r	4r	4r	16ee'LL	.
.	.	.	16ccc'	.
.	.	.	16bb-'	.
.	.	.	16aa'JJ	.
=110	=110	=110	=110	=110
!!linebreak:original
!!linebreak:original
!!linebreak:original
!!linebreak:original
!LO:TX:Bi:t=Cresc.	!	!	!	!
4%3r	4%3r	4%3r	16ggLL	.
.	.	.	16ff	.
.	.	.	16ee	.
.	.	.	16ddJJ	.
.	.	.	16ccLL	.
.	.	.	16gg	.
.	.	.	16ff	.
.	.	.	16eeJJ	.
.	.	.	16ddLL	.
.	.	.	16cc	.
.	.	.	16bn	.
.	.	.	16aJJ	.
=111	=111	=111	=111	=111
4r	4r	4r	16gLL	.
.	.	.	16ee	.
.	.	.	16dd	.
.	.	.	16ccJJ	.
4r	4r	4r	16bnLL	.
.	.	.	16a	.
.	.	.	16g	.
.	.	.	16fJJ	.
!LO:TX:Bi:t=Cresc.	!	!	!	!
!LO:TX:Bi:t=Cresc.	!	!	!	!
!LO:TX:Bi:t=Cresc.	!	!	!	!
16ELL	16ELL	16eLL	16eLL	.
16c	16c	16cc	16cc	.
16Bn	16Bn	16bn	16b	.
16AJJ	16AJJ	16aJJ	16aJJ	.
=112	=112	=112	=112	=112
16GLL	16GLL	16gLL	16gLL	.
16F	16F	16f	16f	.
16E	16E	16e	16e	.
16DJJ	16DJJ	16dJJ	16dJJ	.
(<16CLL	16CLL	(<16cLL	(<16cLL	.
16BBn	(<16Bn	16Bn	16Bn	.
16C	16c	16c	16c	.
16BBJJ	16B	16BJJ	16BJJ	.
16CLL	16c	16cLL	16cLL	.
16BB	16B	16B	16B	.
16C	16c	16c	16c	.
16BBJJ)	16BJJ)	16BJJ)	16BJJ)	.
=113	=113	=113	=113	=113
!!linebreak:original
!!linebreak:original
!!linebreak:original
!!linebreak:original
4C'	4c'	4c'	4c'	.
4CC'	4E'	4G'	4c'	.
4CC'	4E'	4G'	4c'	.
=114	=114	=114	=114	=114
4CC'	4E'	4G'	4c'	.
4r	4r	4r	4r	.
4r	4r	4r	4r	.
=115:|!	=115:|!	=115:|!	=115:|!	=115:|!
4AA	4A	4A 4a	16aa'LL	.
.	.	.	16eee'	.
.	.	.	16ddd'	.
.	.	.	16ccc#X'JJ	.
4r	4r	4r	16bbn'LL	.
.	.	.	16aa'	.
.	.	.	16gg#X'	.
.	.	.	16ff#X'JJ	.
4r	4r	4r	16ee'LL	.
.	.	.	16aa'	.
.	.	.	16gg#'	.
.	.	.	16ff#'JJ	.
=116	=116	=116	=116	=116
4%3r	4%3r	4%3r	16eeLL	.
.	.	.	16dd	.
.	.	.	16cc#X	.
.	.	.	16bnJJ	.
.	.	.	16aLL	.
.	.	.	16ee	.
.	.	.	16dd	.
.	.	.	16cc#JJ	.
.	.	.	16bLL	.
.	.	.	16a	.
.	.	.	16g#X	.
.	.	.	16f#XJJ	.
=117	=117	=117	=117	=117
!!pagebreak:original
!!pagebreak:original
!!pagebreak:original
!!pagebreak:original
16ELL	16r	16r	16eLL	.
16A	16aLL	16aLL	16a	.
16G#X	16g#X	16g#X	16g#X	.
16F#XJJ	16f#XJJ	16f#XJJ	16f#XJJ	.
16ELL	16eLL	16eLL	16eLL	.
16D	16d	16d	16d	.
16C#X	16c#X	16c#X	(<16c#X	.
16BBnJJ	16BnJJ	16BnJJ	16BnJJ	.
(<16AALL	(<16ALL	(<16ALL	16ALL	.
16GG#X	16G#X	16G#X	16G#X	.
16AA	16A	16A	16A	.
16GG#JJ)	16G#JJ)	16G#JJ)	16G#JJ)	.
=118	=118	=118	=118	=118
4AA'	4A'	4A	4A'	.
4AA'	4A'	4A'	4A'	.
4AA'	4A'	(<4A	(<4A	.
=119	=119	=119	=119	=119
(<4.BB-	(<4.B-	[2.B-)	[2.B-)	.
16CLL	16cLL	.	.	.
16BB-JJ)	16B-JJ)	.	.	.
8AA'L	8A'L	.	.	.
8BB-'J	8B-'J	.	.	.
=120	=120	=120	=120	=120
2.FF	2.F	4B-]	16B-]	.
.	.	.	16ddLL	.
.	.	.	16ff	.
.	.	.	16bb-JJ	.
.	.	4B-'	16dddLL	.
.	.	.	16bb-	.
.	.	.	16ddd	.
.	.	.	16bb-JJ	.
.	.	4B-'	16dddLL	.
.	.	.	16bb-	.
.	.	.	16ddd	.
.	.	.	16bb-JJ	.
=121	=121	=121	=121	=121
!!linebreak:original
!!linebreak:original
!!linebreak:original
!!linebreak:original
(<4.BB-	(<4.B-	[2.B-	4eee-X	.
.	.	.	4r	.
16CLL	16cLL	.	.	.
16BB-JJ)	16B-JJ)	.	.	.
8AA'L	8A'L	.	4r	.
8BB-'J	8B-'J	.	.	.
=122	=122	=122	=122	=122
2.GG	2.G	4B-]	16r	.
.	.	.	16ee-XLL	p
.	.	.	16gg	.
.	.	.	16bb-JJ	.
.	.	4B-'	16eee-XLL	.
.	.	.	16bb-	.
.	.	.	16eee-	.
.	.	.	16bb-JJ	.
.	.	4B-'	16eee-LL	.
.	.	.	16bb-	.
.	.	.	16eee-	.
.	.	.	16bb-JJ	.
=123	=123	=123	=123	=123
(>2.G	[2.e-X	(>4.b-	4eee-X	.
.	.	.	4r	.
.	.	16ccLL)	.	.
.	.	16b-JJ	.	.
.	.	8a'L	4r	.
.	.	8b-'J	.	.
=124	=124	=124	=124	=124
2.A)	(>2e-]	(>2cc	4%3r	.
.	4c)	4e-X)	.	.
=125	=125	=125	=125	=125
4%3r	4%3r	4%3r	(>2ccc	.
.	.	.	4ee-X)	.
=126	=126	=126	=126	=126
!!linebreak:original
!!linebreak:original
!!linebreak:original
!!linebreak:original
(>2.B-	[2.g	(>4.dd	4%3r	.
.	.	16eeLL	.	.
.	.	16ddJJ)	.	.
.	.	8cc#X'L	.	.
.	.	8dd'J	.	.
=127	=127	=127	=127	=127
2.c#X)	(>2g]	(>2ee	4%3r	.
.	4e)	4g	.	.
=128	=128	=128	=128	=128
4%3r	4%3r	4%3r	(>2eee	.
.	.	.	4gg)	.
=129	=129	=129	=129	=129
(>4.B-	4%3r	4%3r	4%3r	.
16cLL	.	.	.	.
16B-JJ)	.	.	.	.
8A'L	.	.	.	.
8B-'J	.	.	.	.
=130	=130	=130	=130	=130
4C#X'	(>4.b-	4%3r	4%3r	.
4D'	.	.	.	.
.	16ccLL	.	.	.
.	16b-JJ)	.	.	.
4D#X'	8a'L	.	.	.
.	8b-'J	.	.	.
=131	=131	=131	=131	=131
4E'	4c#X'	4r	(>4.bb-	.
4c#X'	4e'	4.b-	.	.
.	.	.	16cccLL	.
.	.	.	16bb-JJ)	.
4dn'	4f'	.	8aa'L	.
.	.	16ccLL)	8bb-'J	.
.	.	16b-JJ	.	.
=132	=132	=132	=132	=132
!!pagebreak:original
!!pagebreak:original
!!pagebreak:original
!!pagebreak:original
4e'	4g'	8a'L	4cc#X'	.
.	.	8b-'J	.	.
4e'	4g'	4gg'	4eee'	.
4f'	4a'	4ff'	4ddd'	.
=133	=133	=133	=133	=133
4g'	4b-'	(>[4ee	(>8ccc#XL	.
.	.	.	16eeeL	.
.	.	.	16dddJJ)	sf
(>4.g	(>4.b-	8eeL]	(>4.ccc#	.
.	.	16ggL	.	.
.	.	16ffJJ	.	.
.	.	8eeL)	.	.
8f)	8a)	8ddJ)	8ddd)	.
=134	=134	=134	=134	=134
4g'	4b-'	(>[4ee	(>8ccc#XL	.
.	.	.	16eeeL	.
.	.	.	16dddJJ)	sf
(>4.g	(>4.b-	8eeL]	(>4.ccc#	.
.	.	16ggL	.	.
.	.	(>16ffJJ)	.	.
.	.	8eeL	.	.
8f)	8a)	8ddJ)	8ddd)	.
=135	=135	=135	=135	=135
4%3r	4%3r	(>[4ee-X	4%3r	.
.	.	8ee-L]	.	.
.	.	16ffL	.	.
.	.	16ee-JJ	.	.
.	.	8dd'L)	.	.
.	.	8ee-'J	.	.
=136	=136	=136	=136	=136
(>4.e-X	4%3r	4f#X'	4%3r	.
.	.	4g'	.	.
16fLL	.	.	.	.
16e-JJ)	.	.	.	.
8d'L	.	4g#X'	.	.
8e-'J	.	.	.	.
=137	=137	=137	=137	=137
!!linebreak:original
!!linebreak:original
!!linebreak:original
!!linebreak:original
4F#X'	4r	4a'	(>4.eee-X	.
4G'	(>4.e-X	4b-'	.	.
.	.	.	16fffLL	.
.	.	.	16eee-JJ)	.
4G-X'	.	4bn'	8ddd'L	.
.	16fLL	.	8eee-'J	.
.	16e-JJ)	.	.	.
=138	=138	=138	=138	=138
4A'	8d'L	4cc'	4ff#X'	.
.	8e-X'J	.	.	.
4A'	4c'	4aa'	4ccc'	.
4B-'	4d'	4gg'	4bb-'	.
=139	=139	=139	=139	=139
(>[4c	[4e-X	(>8ff#XL	(>8aaL	.
.	.	16aaL	16cccL	.
.	.	16ggJJ)	16bb-JJ)	.
8cL]	(>8e-L]	4.ff#	(>4.aa	.
16AL	16cL	.	.	.
(>16B-JJ	16dJJ)	.	.	.
8cL)	(>8e-L	.	.	.
8B-J)	8dJ)	8gg)	8bb-)	.
=140	=140	=140	=140	=140
(>[4c	[4e-X	(>8ff#XL	(>8aaL	.
.	.	16aaL	16cccL	.
.	.	16ggJJ)	16bb-JJ)	.
(>8cL]	(>8e-L]	(>4.ff#	(>4.aa	.
16AL	16cL	.	.	.
16B-JJ)	16dJJ)	.	.	.
8cL)	(>8e-L	.	.	.
8B-J	8dJ)	8gg)	8bb-)	.
=141	=141	=141	=141	=141
4%3r	(>4.a-X	4%3r	4%3r	.
.	16b-LL	.	.	.
.	16a-JJ)	.	.	.
.	8g'L	.	.	.
.	8a-'J	.	.	.
=142	=142	=142	=142	=142
!!linebreak:original
!!linebreak:original
!!linebreak:original
!!linebreak:original
(>4.A-X	4Bn'	4%3r	4%3r	.
.	4c'	.	.	.
16B-LL	.	.	.	.
16A-JJ	.	.	.	.
8G'L)	4c#X'	.	.	.
8A-'J	.	.	.	.
=143	=143	=143	=143	=143
4BBn'	4d'	4r	(>4.aa-X	.
4C'	4e-X'	(<4.a-X	.	.
.	.	.	16bb-LL	.
.	.	.	16aa-JJ)	.
4C#X'	4en'	.	8gg'L	.
.	.	16b-LL	8aa-'J	.
.	.	16a-JJ)	.	.
=144	=144	=144	=144	=144
4D	4f'	8g'L	4bn'	.
.	.	8a-X'J	.	.
(>4f'	4a-X'	(>4dd'	4aa-X'	.
4e-X')	4g'	4cc')	4aa-'	.
=145	=145	=145	=145	=145
8dL	(>8fL	(>8bnL	[4aa-X	.
(>16fL	16a-XL	16ddL	.	.
16e-XJJ	16gJJ)	16ccJJ)	.	.
(>4.d	(>4.f	4.b	(>8aanL	.
.	.	.	16ffL	.
.	.	.	16ggJJ)	.
.	.	.	(>8aa-XL]	.
8e-)	8g)	8cc)	8ggJ)	.
=146	=146	=146	=146	=146
(>8dL	(>8fL	(>8bnL	[4aa-X	.
(>16fL	16a-XL	16ddL	.	.
16e-XJJ	16gJJ)	16ccJJ)	.	.
4.d)	(>4.f	4.b	(>8aa-L]	.
.	.	.	16ffL	.
.	.	.	16ggJJ)	.
.	.	.	(>8aa-L	.
8e-)	8g)	8cc	8ggJ)	.
=147	=147	=147	=147	=147
!!pagebreak:original
!!pagebreak:original
!!pagebreak:original
!!pagebreak:original
4%3r	(>8b-L	(>8dd-XL	4r	.
.	16gL	16b-XL	.	.
.	16a-XJJ)	16ccJJ)	.	.
.	(>4.b-	4.dd-	(>8eeeL	.
.	.	.	16gggL	.
.	.	.	16fffJJ)	.
.	.	.	(>8eeeL	.
.	8a-)	8cc	8fffJ)	.
=148	=148	=148	=148	=148
4%3r	(>8b-L	8dd-XL)	4r	.
.	16gL	16b-L	.	.
.	16a-XJJ)	16ccJJ)	.	.
.	(>4.b-	(>4.dd-	(>8eeeL	.
.	.	.	16gggL	.
.	.	.	16fffJJ)	.
.	.	.	(>8eeeL	.
.	8a-)	8cc)	8fffJ)	.
=149	=149	=149	=149	=149
8e-XL	(>8g-XL	(>8ccL	[4aa	.
16cL	16e-XL	16ee-XL	.	.
16d-XJJ	16fJJ)	16dd-XJJ)	.	.
(>4.e-	(>4.g-	4.cc	(>8aaL]	.
.	.	.	16cccL	.
.	.	.	16bb-JJ)	.
.	.	.	(>8aaL	.
8d-)	8f)	8b-)	8bb-J)	.
=150	=150	=150	=150	=150
(>8e-XL	(>8g-XL	(>8ccL	[4aa	.
16cL)	16e-XL	16ee-XL)	.	.
16d-XJJ	16fJJ)	16dd-XJJ	.	.
(>4.e-	(>4.g-	(>4.cc	(>8aaL]	.
.	.	.	16cccL	.
.	.	.	16bb-JJ)	.
.	.	.	(>8aaL	.
8d-)	8f)	8b-)	8bb-J)	.
=151	=151	=151	=151	=151
!!linebreak:original
!!linebreak:original
!!linebreak:original
!!linebreak:original
4BB-	8B-L	8d-XL	[4ddd-X	.
.	8B-	8d-	.	.
4r	8B-	8d-	(>8ddd-L]	.
.	8B-	8d-	16eee-XL	.
.	.	.	16ddd-JJ)	.
4r	8B-	8d-	8ccc'L	.
.	8B-J	8d-J	8ddd-'J	.
=152	=152	=152	=152	=152
4%3r	2.B-	2d-X	[4bb-	.
.	.	.	(>8bb-L]	.
.	.	.	16cccL	.
.	.	.	16bb-JJ)	.
.	.	.	8aa'L	.
.	.	.	8bb-'J	.
=153	=153	=153	=153	=153
.	.	2.d-X	.	.
4%3r	2.B-	.	[4ff	.
.	.	.	(>8ffL]	.
.	.	.	16gg-XL	.
.	.	.	16ffJJ)	.
.	.	.	8ee'L	.
.	.	.	8ff'J	.
=154	=154	=154	=154	=154
.	.	2.d-X	.	.
4%3r	2.B-	.	[4dd-X	.
.	.	.	(>8dd-L]	.
.	.	.	16ee-XL	.
.	.	.	16dd-JJ)	.
.	.	.	8cc'L	.
.	.	.	8dd-'J	.
=155	=155	=155	=155	=155
.	.	[4gg-X	.	.
2.G-X	2.B-	(>8gg-L]	8d-XL	.
.	.	16aa-XL	8d-	.
.	.	16gg-JJ)	.	.
.	.	8ff'L	8d-	.
.	.	8gg-'J	8d-	.
.	.	.	8d-	.
.	.	.	8d-J	.
=156	=156	=156	=156	=156
!!linebreak:original
.	.	[4dd-X	.	.
!!linebreak:original
!!linebreak:original
!!linebreak:original
2.D-X	2.B-	(>8dd-L]	8d-XL	.
.	.	16ee-XL	8d-	.
.	.	16dd-JJ)	.	.
.	.	8cc'L	8d-	.
.	.	8dd-'J	8d-	.
.	.	.	8d-	.
.	.	.	8d-J	.
=157	=157	=157	=157	=157
.	.	[4b-	.	.
2.BB-	2.B-	(>8b-L]	8d-XL	.
.	.	16cc-XL)	8d-	.
.	.	16b-JJ	.	.
.	.	8a'L	8d-	.
.	.	8b-'J	8d-	.
.	.	.	8d-	.
.	.	.	8d-J	.
=158	=158	=158	=158	=158
.	.	(<4g-X'	.	.
4GG-X'	2.B-	4f'	8d-XL	.
.	.	.	8d-	.
4FF'	.	4e')	8d-	.
.	.	.	8d-	.
4EE'	.	.	8c	.
.	.	.	8cJ	.
=159	=159	=159	=159	=159
.	.	8cL	.	.
.	.	8c	.	.
4FF	2.A-X	8c	[4ff	.
.	.	8c	.	.
4r	.	8c	(>8ffL]	.
.	.	8cJ	16ggL	.
.	.	.	16ffJJ)	.
4r	.	.	8ee'L	.
.	.	.	8ff'J	.
=160	=160	=160	=160	=160
.	.	2.c	.	.
4%3r	2.A-X	.	[4cc	.
.	.	.	(>8ccL]	.
.	.	.	16dd-XL	.
.	.	.	16ccJJ)	.
.	.	.	8bn'L	.
.	.	.	8cc'J	.
=161	=161	=161	=161	=161
!!pagebreak:original
.	.	2.c	.	.
!!pagebreak:original
!!pagebreak:original
!!pagebreak:original
4%3r	2.A-X	.	[4a-X	.
.	.	.	(<8a-L]	.
.	.	.	16b-XL	.
.	.	.	16a-JJ)	.
.	.	.	8g'L	.
.	.	.	8a-'J	.
=162	=162	=162	=162	=162
.	.	2.c	.	.
4%3r	2.A-X	.	[4f	.
.	.	.	(<8fL]	.
.	.	.	16gL	.
.	.	.	16fJJ)	.
.	.	.	8e'L	.
.	.	.	8f'J	.
=163	=163	=163	=163	=163
.	.	[4dd-X	.	.
2.D-X	2.A-X	(>8dd-L]	8fL	.
.	.	16ee-XL)	8f	.
.	.	16dd-JJ	.	.
.	.	8cc'L	8f	.
.	.	8dd-'J	8f	.
.	.	.	8f	.
.	.	.	8fJ	.
=164	=164	=164	=164	=164
.	.	[4a-X	.	.
2.AA-X	2A-X	(<8a-L]	8fL	.
.	.	16b-L	8f	.
.	.	16a-JJ)	.	.
.	.	8g'L	8f	.
.	.	8a-'J	8f	.
.	.	.	8f	.
.	.	.	8fJ	.
=165	=165	=165	=165	=165
.	2.A-X	[4f	.	.
2FF	.	(<8fL]	8fL	.
.	.	16g-XL	8f	.
.	.	16fJJ)	.	.
.	.	8e-X'L	8f	.
.	.	8f'J	8f	.
4DD-X'	.	.	8f	.
.	.	.	8fJ	.
=166	=166	=166	=166	=166
!!linebreak:original
!!linebreak:original
.	2.A-X	(<4d-X'	.	.
!!linebreak:original
!!linebreak:original
4D-X'	.	4c'	8fL	.
.	.	.	8f	.
4C'	.	4Bn'	8f	.
.	.	.	8f	.
4BBn'	.	.	8f	.
.	.	.	8fJ	.
=167	=167	=167	=167	=167
.	4G	4c')	.	.
4CC 4C	[2c	[2G [2e	16e'	.
.	.	.	16ccc'LL	.
.	.	.	16bbn'	.
.	.	.	16aa'JJ	.
8r	.	.	16gg'LL	.
.	.	.	16ff'	.
8C'L	.	.	16ee'	.
.	.	.	16dd'JJ	.
8C'	.	.	[4cc	.
8C'J	.	.	.	.
=168	=168	=168	=168	=168
.	4c]	4G] 4e]	.	.
4EE	[2c	[2G [2e	16ccLL]	.
.	.	.	16ccc'	.
.	.	.	16bbn'	.
.	.	.	16aa'JJ	.
8r	.	.	16gg'LL	.
.	.	.	16ff'	.
8E'L	.	.	16ee'	.
.	.	.	16dd'JJ	.
8E'	.	.	[4cc	.
8E'J	.	.	.	.
=169	=169	=169	=169	=169
.	4c]	4G] 4e]	.	.
4GG	[2c	[2G [2e	16ccLL]	.
.	.	.	16ccc'	.
.	.	.	16bbn'	.
.	.	.	16aa'JJ	.
8r	.	.	16gg'LL	.
.	.	.	16ff'	.
8G'L	.	.	16ee'	.
.	.	.	16dd'JJ	.
8G'	.	.	16cc'LL	.
.	.	.	16.ccc'	.
8G'J	.	.	.	.
.	.	.	16bb'JJ	.
=170	=170	=170	=170	=170
!!linebreak:original
!!linebreak:original
.	4c]	4G] 4e]	.	.
!!linebreak:original
.	.	.	16ggLL	.
!!linebreak:original
4C	4c	4G 4e	.	.
.	.	.	16ff	.
.	.	.	16ee	.
.	.	.	16ddJJ	.
.	.	.	16ccLL	.
8r	4c	4G 4e	.	.
.	.	.	16bn	.
.	.	.	16dd	.
8c'L	.	.	.	.
.	.	.	16ccJJ	.
.	.	.	16bLL	.
8c'	.	.	.	.
.	.	.	16cc	.
.	.	.	16dd	.
8c'J	.	.	.	.
.	.	.	16ccJJ	.
=171	=171	=171	=171	=171
.	4c	4G 4e	.	.
.	.	.	4b-X	.
16CC'LL	[2C [2c	4r	.	.
16C'	.	.	.	.
16BBn	.	.	.	.
16AA'JJ	.	.	.	.
.	.	.	[2ee	sf
16GG'LL	.	16r	.	.
16FF'	.	16c'LL	.	.
16EE'	.	16d'	.	.
16DD'JJ	.	16e'JJ	.	.
[4CC	.	.	.	.
=172	=172	=172	=172	=172
.	4C] 4c]	16f'LL	.	.
.	.	16g'	.	.
.	.	16a'	.	.
.	.	16bn'JJ	.	.
.	.	.	4ee]	.
16CCLL]	[2c [2e	[4cc	.	.
16C'	.	.	.	.
16BBn	.	.	.	.
16AA'JJ	.	.	.	.
.	.	.	[2gg	sf
16GG'LL	.	16ccLL]	.	.
16FF'	.	16c'	.	.
16EE'	.	16d'	.	.
16DD'JJ	.	16e'JJ	.	.
[4CC	.	.	.	.
=173	=173	=173	=173	=173
!!pagebreak:original
!!pagebreak:original
.	4c] 4e]	16f'LL	.	.
.	.	16g'	.	.
.	.	16a'	.	.
.	.	16bn'JJ	.	.
!!pagebreak:original
.	.	.	4gg]	.
!!pagebreak:original
16CCLL]	[2c [2g	[4cc	.	.
16C'	.	.	.	.
16BBn	.	.	.	.
16AA'JJ	.	.	.	.
.	.	.	[2bb-	sf
16GG'LL	.	16ccLL]	.	.
16FF'	.	16c'	.	.
16EE'	.	16d'	.	.
16DD'JJ	.	16e'JJ	.	.
16CC'LL	.	.	.	.
16C'	.	.	.	.
16BB'	.	.	.	.
16AA'JJ	.	.	.	.
=174	=174	=174	=174	=174
.	(>4c] 4g]	16f'LL	.	.
.	.	16g'	.	.
.	.	16a'	.	.
.	.	16bn'JJ	.	.
.	.	.	4bb-]	.
16GG'LL	4c' 4g	16cc'LL	.	.
16FF'	.	16c'	.	.
16EE'	.	16d'	.	.
16DD'JJ	.	16e'JJ	.	.
.	.	.	4eee'	.
16CC'LL	4c' 4g)	16f'LL	.	.
16C'	.	16g'	.	.
16BBn'	.	16a'	.	.
16AA'JJ	.	16b'JJ	.	.
.	.	.	4ggg'	.
16GG'LL	.	.	.	.
16FF'	.	.	.	.
16EE'	.	.	.	.
16DD'JJ	.	.	.	.
=175	=175	=175	=175	=175
.	2.c 2.g	[2cc	.	.
.	.	.	2.bbb-	sf
8CC'L	.	.	.	.
16DD'L	.	.	.	.
16EE'JJ	.	.	.	.
16FF'LL	.	8ccL]	.	.
16GG'	.	.	.	.
16AA'	.	16bn'L	.	.
16BBn'JJ	.	16a'JJ	.	.
[4C	.	.	.	.
=176	=176	=176	=176	=176
!!linebreak:original
!!linebreak:original
.	2.C 2.c	16g'LL	.	.
.	.	16f'	.	.
.	.	16e'	.	.
.	.	16d'JJ	.	.
!!linebreak:original
.	.	.	2.ee	sf
!!linebreak:original
8CL]	.	[4c	.	.
16C'L	.	.	.	.
(>16D'JJ	.	.	.	.
16ELL	.	8cL]	.	.
16F	.	.	.	.
16G	.	16c'L	.	.
16AJJ)	.	16d'JJ	.	.
[4B-X	.	.	.	.
=177	=177	=177	=177	=177
.	8CL 8c	(<16eLL	.	.
.	.	16f	.	.
.	8C 8c	16g	.	.
.	.	16aJJ)	.	.
.	.	.	2.gg	sf
8B-'L]	8C 8c	8b-'L	.	.
8A'	8C 8c	8a'	.	.
8G'	8C 8c	8g'	.	.
8F'	8CJ 8c	8f'J	.	.
8E'	.	.	.	.
8D'J	.	.	.	.
=178	=178	=178	=178	=178
!	!LO:TX:Bi:t=Cresc.	!	!	!
!	!LO:TX:Bi:t=Cresc.	!	!	!
.	8CL 8c	8e'L	.	.
.	8C 8c	8f'	.	.
!	!	!	!LO:TX:Bi:t=Cresc.	!
.	.	.	(>16cLL	.
!LO:TX:Bi:t=Cresc.	!	!	!	!
8C'L	8C 8c	8e'	.	.
.	.	.	16Bn	.
.	.	.	16c	.
8D'	8C 8c	8d'	.	.
.	.	.	16dJJ	.
.	.	.	16eLL	.
8C'	8C 8c	8c'	.	.
.	.	.	16f	.
.	.	.	16g	.
8BB-'	8CJ 8c	8B-'J	.	.
.	.	.	16aJJ	.
.	.	.	16b-XLL	.
8AA'	.	.	.	.
.	.	.	16cc	.
.	.	.	16dd	.
8GG'J	.	.	.	.
.	.	.	16eeJJ)	.
=179	=179	=179	=179	=179
.	(<4.F	(<4.A 4.f	.	.
.	.	.	(>4.ff	ff
(<4.FF	.	.	.	.
.	16GLL	16gLL	.	.
.	16FJJ)	16fJJ)	.	.
.	8E'L	8e'L	.	.
.	.	.	16ggLL	.
16GGLL	8F'J	8f'J	.	.
.	.	.	16ffJJ)	.
16FFJJ)	.	.	.	.
.	.	.	8ee'L	.
8EE'L	.	.	.	.
.	.	.	8ff'J	.
8FF'J	.	.	.	.
=180	=180	=180	=180	=180
!!linebreak:original
!!linebreak:original
.	4C	4c	.	.
!!linebreak:original
.	.	.	4cc	.
!!linebreak:original
4CC	4r	4r	.	.
.	.	.	4r	.
4r	4r	4r	.	.
.	.	.	4r	.
4r	.	.	.	.
=181	=181	=181	=181	=181
.	(<4.F	(<4.f	.	.
.	.	.	(>4.ff	.
(<4.FF	.	.	.	.
.	16GLL	16gLL	.	.
.	16FJJ)	16fJJ	.	.
.	8E'L	8e'L)	.	.
.	.	.	16ggLL	.
16GGLL	8F'J	8f'J	.	.
.	.	.	16ffJJ)	.
16FFJJ)	.	.	.	.
.	.	.	8ee'L	.
8EE'L	.	.	.	.
.	.	.	8ff'J	.
8FF'J	.	.	.	.
=182	=182	=182	=182	=182
.	4D	4d	.	.
.	.	.	4dd	.
4DD	4r	4r	.	.
.	.	.	4r	.
4r	4r	4r	.	.
.	.	.	4r	.
4r	.	.	.	.
=183	=183	=183	=183	=183
.	(>2.d	[2.b-	.	.
.	.	.	(>[4ff	p
2.D	.	.	.	.
.	.	.	8ffL]	<
.	.	.	16ggL	.
.	.	.	16ffJJ)	.
.	.	.	8ee'L	.
.	.	.	8ff'J	[
=184	=184	=184	=184	=184
.	[2.c)	(>2b-]	.	.
.	.	.	(>2gg	>
2.E	.	.	.	.
.	.	4g)	.	.
.	.	.	4b-)	]
=185	=185	=185	=185	=185
.	(>4c]	(<2f	.	.
.	.	.	(>2a	.
(>4F	4d	.	.	.
4D	4G)	8.b-L	.	.
.	.	16gJk	.	.
.	.	.	8.ddL	.
4BB-)	.	.	.	.
.	.	.	16b-Jk)	.
=186	=186	=186	=186	=186
!!pagebreak:original
!!pagebreak:original
.	(>8cL	2f)	.	.
.	8Bn	.	.	.
!!pagebreak:original
.	.	.	(<2a	.
!!pagebreak:original
2.C	8c	.	.	.
.	8BJ	.	.	.
.	4c)	4e)	.	.
.	.	.	4g)	.
=187	=187	=187	=187	=187
.	4%3r	(>[4b-	.	.
.	.	.	4%3r	.
4%3r	.	8b-L]	.	.
.	.	16ccL	.	.
.	.	16b-JJ	.	.
.	.	8a'L)	.	.
.	.	8b-'J	.	.
=188	=188	=188	=188	=188
.	(>4.a	4.cc	.	.
.	.	.	[2.ff	p
4%3r	.	.	.	.
.	16b-LL	16dd-XLL	.	.
.	16aJJ)	16ccJJ	.	.
.	8g'L	8b-'L)	.	.
.	8a'J	8cc'J	.	.
=189	=189	=189	=189	=189
.	(>4b-	(>2dd-X	.	.
.	.	.	(>4ff]	.
4%3r	4g-X	.	.	.
.	.	.	[4bb-)	.
.	4e-X)	8.gg-XL	.	.
.	.	16ee-XJk)	.	.
.	.	.	(>8.bb-L]	.
.	.	.	16gg-XJk)	.
=190	=190	=190	=190	=190
.	4a-X'	(>2dd-X	.	.
.	.	.	(>2ff	.
4%3r	4A-X'	.	.	.
.	4r	4cc)	.	.
.	.	.	4ee-X)	.
=191	=191	=191	=191	=191
.	(>2d-X	(<2f)	.	.
.	.	.	4%3r	.
(>4D-X	.	.	.	.
4BB-	8.g-XL	(<8.b-L	.	.
.	16e-XJk)	16g-XJk	.	.
4GG-X)	.	.	.	.
=192	=192	=192	=192	=192
!!linebreak:original
!!linebreak:original
.	(>2d-X	2f	.	.
!!linebreak:original
.	.	.	4%3r	.
!!linebreak:original
4AA-X'	.	.	.	.
4A-X'	4c)	4e-X)	.	.
4r	.	.	.	.
=193	=193	=193	=193	=193
.	(>4b-	(>2b-~	.	.
.	.	.	(>2dd-X	.
4%3r	4g-X	.	.	.
.	4e-X)	4b-')	.	.
.	.	.	8.gg-XL	.
.	.	.	16ee-XJk)	.
=194	=194	=194	=194	=194
.	4f'	(>2b-	.	.
.	.	.	(>2dd-X	.
4%3r	4F'	.	.	.
.	4r	4a)	.	.
.	.	.	4cc)	.
=195	=195	=195	=195	=195
.	[2B-~	(<2d-X	.	.
.	.	.	4%3r	.
(>4B-	.	.	.	.
4G-X	4B-']	8.g-XL	.	.
.	.	16e-XJk)	.	.
4E-X)	.	.	.	.
=196	=196	=196	=196	=196
!	!LO:TX:Bi:t=Cresc.	!	!	!
!	!LO:TX:Bi:t=Cresc.	!	!	!
.	(<2.A-X	(<2.d-X	.	.
.	.	.	4r	.
!LO:TX:Bi:t=Cresc.	!	!	!	!
(>2.F	.	.	.	.
!	!	!	!LO:TX:Bi:t=Cresc.	!
.	.	.	4dd-X	.
.	.	.	4dd-	.
=197	=197	=197	=197	=197
.	2.F)	2.a-X)	.	.
.	.	.	(>8dd-XL	.
4D-X)	.	.	.	.
.	.	.	8cc-X	.
.	.	.	8b-	.
4DD-X	.	.	.	.
.	.	.	8cc-	.
.	.	.	8dd-	.
4DD-	.	.	.	.
.	.	.	8cc-J)	.
=198	=198	=198	=198	=198
!!linebreak:original
!!linebreak:original
.	(<4.D-X	4g-X	.	.
!!linebreak:original
.	.	.	4b-	p
!!linebreak:original
[2.GG-X	.	4r	.	.
.	16E-XLL	.	.	.
.	16D-JJ)	.	.	.
.	.	.	4r	.
.	8C'L	4r	.	.
.	8D-'J	.	.	.
.	.	.	4r	.
=199	=199	=199	=199	=199
.	[2.D-X	4r	.	.
.	.	.	4r	.
2.GG-]	.	4B-	.	.
.	.	.	8r	.
.	.	4B-	.	.
.	.	.	8b-	.
.	.	.	4b-	.
=200	=200	=200	=200	=200
.	(<4.D-]	[2.c-X	.	.
.	.	.	(>4.dd-X)	.
[2.AA-X	.	.	.	.
.	16E-XLL	.	.	.
.	16D-X'JJ)	.	.	.
.	8CL	.	.	.
.	.	.	8cc-XL)	.
.	8D-'J	.	.	.
.	.	.	8a-X'	.
.	.	.	8g-X'J	.
=201	=201	=201	=201	=201
.	[2.D-X	4c-]	.	.
.	.	.	4f	.
2.AA-]	.	4c-X	.	.
.	.	.	8r	.
.	.	4c-	.	.
.	.	.	8cc-X	.
.	.	.	4cc-	.
=202	=202	=202	=202	=202
.	(<4.D-]	[2.d-X	.	.
.	.	.	(>4.ee-X)	.
[2.BB-	.	.	.	.
.	16E-XLL	.	.	.
.	16D-XJJ)	.	.	.
.	8C'L	.	.	.
.	.	.	8dd-X	.
.	8D-J	.	.	.
.	.	.	8b-'L)	.
.	.	.	8a-X'J	.
=203	=203	=203	=203	=203
.	2.D-X	4d-]	.	.
.	.	.	4g-X	.
2.BB-]	.	4d-X	.	.
.	.	.	8r	.
.	.	4d-	.	.
.	.	.	8gg-X	.
.	.	.	4gg-	.
=204	=204	=204	=204	=204
!!pagebreak:original
!!pagebreak:original
.	(<4.D-X	2a-X	.	.
!!pagebreak:original
.	.	.	(>4.bb-	.
!!pagebreak:original
[2.FF	.	.	.	.
.	16E-XLL	.	.	.
.	16D-JJ)	.	.	.
.	8C'L	(<8a-'L	.	.
.	.	.	8aa-XL)	.
.	8D-'J	8g-X'J)	.	.
.	.	.	8aa-'	.
.	.	.	8gg-X'J	.
=205	=205	=205	=205	=205
.	2.D-X	(<8g-XL	.	.
.	.	8f)	.	.
.	.	.	(>8gg-XL	.
4FF]	.	8f'	.	.
.	.	.	8ffJ)	.
.	.	8e-X'	.	.
.	.	.	8ff'L	.
4AA-X	.	8d-X'	.	.
.	.	.	8ee-X'	.
.	.	8c-X'J	.	.
.	.	.	8dd-X'	.
4DD-X	.	.	.	.
.	.	.	8cc-X'J	.
=206	=206	=206	=206	=206
!	!LO:TX:Bi:t=Cresc.	!	!	!
!	!LO:TX:Bi:t=Cresc.	!	!	!
.	(<4.D-X	(<4A	.	.
!	!	!	!LO:TX:Bi:t=Cresc.	!
.	.	.	(>4a	.
!LO:TX:Bi:t=Cresc.	!	!	!	!
(<2.GG-X	.	4B-)	.	.
.	16E-XLL	.	.	.
.	16D-JJ)	.	.	.
.	.	.	4b-)	.
.	8C'L	4B-'	.	.
.	8D-'J	.	.	.
.	.	.	4b-'	.
=207	=207	=207	=207	=207
.	2.D-X	[4.B-	.	.
.	.	.	(>4.b-	.
2.FF)	.	.	.	.
.	.	16cLL	.	.
.	.	16B-JJ]	.	.
.	.	8A'L	.	.
.	.	.	16ccLL	.
.	.	8B-'J	.	.
.	.	.	16b-JJ)	.
.	.	.	8a'L	.
.	.	.	8b-'J	.
=208	=208	=208	=208	=208
.	(>4.C	2g	.	.
.	.	.	2gg	f
2EE	.	.	.	.
.	16d-XLL	.	.	.
.	16cJJ)	.	.	.
.	8Bn'L	4g	.	.
.	8c'J	.	.	.
.	.	.	4b-'	.
4E'	.	.	.	.
=209	=209	=209	=209	=209
!!linebreak:original
!!linebreak:original
.	4c'	4c'	.	.
!!linebreak:original
.	.	.	4a-X'	.
!!linebreak:original
4F'	4G'	4c'	.	.
.	.	.	4g'	.
4E-X'	8A-X'L	4Bn'	.	.
.	8F'J	.	.	.
.	.	.	4f'	.
4D-X'	.	.	.	.
=210	=210	=210	=210	=210
.	4E	4G	.	.
.	.	.	16cc'LL	p
4C	8r	8r	.	.
.	.	.	16c'	.
.	.	.	16d'	.
.	8e'L	8g'	.	.
.	.	.	16e'JJ	.
.	.	.	16f'LL	.
4r	8e'	8g'L	.	.
.	.	.	16g'	.
.	.	.	16an'	.
.	8f'J	8a-X'J	.	.
.	.	.	16bn'JJ	.
.	.	.	16ccLL	.
4r	.	.	.	.
.	.	.	16b'	.
.	.	.	16cc'	.
.	.	.	16b'JJ	.
=211	=211	=211	=211	=211
.	4e	4g	.	.
.	.	.	4cc	.
16r	8r	8r	.	.
16C'LL	.	.	.	.
16D'	8c'	8g'L	.	.
16E'JJ	.	.	.	.
.	.	.	8r	.
16F'LL	8c'L	8g'	.	.
16G'	.	.	.	.
.	.	.	8ee'L	.
16A'	8c'J	8a-X'J	.	.
16Bn'JJ	.	.	.	.
.	.	.	8ee'	.
16c'LL	.	.	.	.
16B'	.	.	.	.
.	.	.	8ff'J	.
16c'	.	.	.	.
16B'JJ	.	.	.	.
=212	=212	=212	=212	=212
.	4c	4g	.	.
.	.	.	16ee'LL	.
4c	8r	8r	.	.
.	.	.	16c'	.
.	.	.	16d'	.
.	8E'L	8G'L	.	.
.	.	.	16e'JJ	.
.	.	.	16f'LL	.
4r	8E'	8G'	.	.
.	.	.	16g'	.
.	.	.	16a'	.
.	8F'J	8A-X'J	.	.
.	.	.	16bn'JJ	.
.	.	.	16cc'LL	.
4r	.	.	.	.
.	.	.	16b'	.
.	.	.	16cc'	.
.	.	.	16b'JJ	.
=213	=213	=213	=213	=213
!!linebreak:original
!!linebreak:original
.	4E	4G	.	.
!!linebreak:original
.	.	.	4cc	.
!!linebreak:original
16r	8r	8r	.	.
16C'LL	.	.	.	.
16D'	8c'L	8g'L	.	.
16E'JJ	.	.	.	.
.	.	.	8r	.
16F'LL	8c'	8g'	.	.
16G'	.	.	.	.
.	.	.	8ee'L	.
16A'	8c'J	8a-X'J	.	.
16Bn'JJ	.	.	.	.
.	.	.	8ee'	.
16c'LL	.	.	.	.
16B'	.	.	.	.
.	.	.	8ff'J	.
16c'	.	.	.	.
16B'JJ	.	.	.	.
=214	=214	=214	=214	=214
!	!LO:TX:Bi:t=Cresc.	!	!	!
!	!LO:TX:Bi:t=Cresc.	!	!	!
.	4c	4g	.	.
!	!	!	!LO:TX:Bi:t=Cresc.	!
.	.	.	16eeLL	.
!LO:TX:Bi:t=Cresc.	!	!	!	!
4c	8r	8r	.	.
.	.	.	16c	.
.	.	.	16d	.
.	8g'L	8ee'	.	.
.	.	.	16eJJ	.
.	.	.	16fLL	.
8r	8g'	8ee'L	.	.
.	.	.	16g	.
.	.	.	16a	.
8c'L	8a-X'J	8ff'J	.	.
.	.	.	16bnJJ	.
.	.	.	16ccLL	.
8c'	.	.	.	.
.	.	.	16b	.
.	.	.	16cc	.
8F'J	.	.	.	.
.	.	.	16bJJ	.
=215	=215	=215	=215	=215
.	16g	16ee'LL	.	.
.	16CLL	16c	.	.
.	16D	16d	.	.
.	16EJJ	16eJJ	.	.
.	.	.	16ccLL	ff
16c'LL	16FLL	16fLL	.	.
.	.	.	16cc	.
16CC'	16G	16g	.	.
.	.	.	16dd	.
16DD	16An	16a	.	.
.	.	.	16eeJJ	.
16EE'JJ	16BnJJ	16bnJJ	.	.
.	.	.	16ffLL	.
16FF'LL	16cLL	16ccLL	.	.
.	.	.	16gg	.
16GG'	16B	16b	.	.
.	.	.	16aa	.
16AA'	16c	16cc	.	.
.	.	.	16bbnJJ	.
16BBn'JJ	16BJJ	16bJJ	.	.
.	.	.	16cccLL	.
16C'LL	.	.	.	.
.	.	.	16bb	.
16BB	.	.	.	.
.	.	.	16ccc	.
16C	.	.	.	.
.	.	.	16bbJJ	.
16BBJJ	.	.	.	.
=216	=216	=216	=216	=216
!!pagebreak:original
!!pagebreak:original
.	4c	4cc	.	.
!!pagebreak:original
.	.	.	8ccc	.
!!pagebreak:original
4C'	4r	4r	.	.
.	.	.	4ccc	.
4r	4r	4r	.	.
.	.	.	4ccc	.
4r	.	.	.	.
.	.	.	[8ccc	.
=217	=217	=217	=217	=217
.	4%3r	4%3r	.	.
!	!	!	!LO:TX:Bi:t=Decresc.	!
.	.	.	8ccc#X	.
4%3r	.	.	.	.
.	.	.	4ccc#X	.
.	.	.	4ccc#	.
.	.	.	(>8ccc#	.
=218	=218	=218	=218	=218
.	4%3r	4%3r	.	.
.	.	.	8ddd)	p
4%3r	.	.	.	.
.	.	.	(>8dddL	.
.	.	.	8bb-J)	.
.	.	.	(>8bb-L	.
.	.	.	8ggJ)	.
.	.	.	(>8gg	.
=219	=219	=219	=219	=219
.	4r	4r	.	.
.	.	.	8ee)	.
4%3r	4r	4r	.	.
.	.	.	(>8eeL	.
.	.	.	8ccJ)	.
.	8b-L	8cc'L	.	.
.	.	.	(>8ccL	.
.	(>8b-J	[8ccJ	.	.
.	.	.	8eeJ)	.
.	.	.	(>8ee	.
=220	=220	=220	=220	=220
.	8aL)	8cc]	.	.
.	(>8aJ	(>8ccL	.	.
.	.	.	8ff)	.
4%3r	8gL)	8eeJ)	.	.
.	.	.	(>8ffL	.
.	(>8gJ	(>8eeL)	.	.
.	.	.	8ggJ)	.
.	8fL)	8ffJ	.	.
.	.	.	(>8ggL	.
.	(>8fJ	8ff	.	.
.	.	.	8aaJ)	.
.	.	.	(>8aa	.
=221	=221	=221	=221	=221
!!linebreak:original
!!linebreak:original
.	4.e)	4aa	.	.
!!linebreak:original
.	.	.	4ccc	.
!!linebreak:original
4%3r	.	8gg	.	.
.	8r	8r	.	.
.	.	.	8bb-)	.
.	8a'L	4r	.	.
.	.	.	8r	.
.	(>8aJ)	.	.	.
.	.	.	4r	.
=222	=222	=222	=222	=222
.	8b-	4%3r	.	.
.	(>8b-L	.	.	.
.	.	.	4%3r	.
4%3r	8gJ)	.	.	.
.	(>8gL	.	.	.
.	8eJ)	.	.	.
.	(>8e	.	.	.
=223	=223	=223	=223	=223
.	8c#XL)	4r	.	.
.	(>8c#J	.	.	.
.	.	.	4r	.
4%3r	8aL)	4r	.	.
.	(>8aJ	.	.	.
.	.	.	4r	.
.	8gL)	4ee	.	.
.	(>8gJ	.	.	.
.	.	.	(>4ccc#X	p
=224	=224	=224	=224	=224
.	8f)	4ff	.	.
.	(>8fL	.	.	.
.	.	.	4ddd	.
4%3r	8dJ)	4aa	.	.
.	(>8dL	.	.	.
.	.	.	4fff	.
.	8gJ)	4dd)	.	.
.	(>8g	.	.	.
.	.	.	4bbn)	.
=225	=225	=225	=225	=225
.	4.c)	(>4ff	.	.
.	.	.	(>4ddd	.
4r	.	8ee)	.	.
.	8r	8r	.	.
.	.	.	8ccc)	.
8r	4r	4r	.	.
.	.	.	8r	.
(>8BnL	.	.	.	.
.	.	.	4r	.
8c	.	.	.	.
8c#XJ	.	.	.	.
=226	=226	=226	=226	=226
!!linebreak:original
!!linebreak:original
.	4%3r	4%3r	.	.
!!linebreak:original
.	.	.	4%3r	.
!!linebreak:original
8d)	.	.	.	.
(>8dL	.	.	.	.
8B-XJ)	.	.	.	.
(>8B-L	.	.	.	.
8GJ)	.	.	.	.
(>8G	.	.	.	.
=227	=227	=227	=227	=227
.	4r	4r	.	.
.	.	.	4r	.
8E)	4r	4r	.	.
(>8EL	.	.	.	.
.	.	.	4r	.
8CJ)	8g'L	8cc'L	.	.
(>8CL	(>8gJ	[8ccJ	.	.
.	.	.	8bb-'L	.
8EJ)	.	.	.	.
.	.	.	(>8bb-J)	.
(>8E	.	.	.	.
=228	=228	=228	=228	=228
.	8f)	(>8cc]	.	.
.	(>8fL	8ccL	.	.
.	.	.	8aa	.
8F)	8eJ)	8b-J)	.	.
.	.	.	(>8aaL	.
(>8FL	(>8eL	(<8b-L	.	.
.	.	.	8ggJ)	.
8GJ)	8cJ)	8aJ)	.	.
.	.	.	(>8ggL	.
(>8GL	8c	(<8a	.	.
.	.	.	8ffJ)	.
8AJ)	.	.	.	.
.	.	.	8ff	.
8A	.	.	.	.
=229	=229	=229	=229	=229
.	4.d-X	4.g)	.	.
.	.	.	(>4ff	.
4.B-	.	.	.	.
.	8r	8r	.	.
.	.	.	4ee)	.
.	4r	8cc'L	.	.
8r	.	8ccJ	.	.
.	.	.	4r	.
4r	.	.	.	.
=230	=230	=230	=230	=230
.	4r	8dd-X	.	.
.	.	(>8dd-L	.	.
.	.	.	4r	.
4%3r	8dd-X'	8b-J)	.	.
.	(>8dd-L	(<8b-L	.	.
.	.	.	4r	.
.	8b-J)	8gJ)	.	.
.	(>8b-	(<8g	.	.
.	.	.	[4ddd-X	.
=231	=231	=231	=231	=231
!!pagebreak:original
!!pagebreak:original
!	!LO:TX:Bi:t=Cresc.	!	!	!
.	8g)	8e)	.	.
!	!LO:TX:Bi:t=Cresc.	!	!	!
.	(>8gL	(<8eL	.	.
!!pagebreak:original
!	!	!	!LO:TX:Bi:t=Cresc.	!
.	.	.	(>4dddn	.
!!pagebreak:original
4%3r	8a-XJ)	8fJ)	.	.
.	(>8fL	4aa-X	.	.
.	.	.	4ccc	.
.	8B-J)	.	.	.
.	(>8B-	8aa-	.	.
.	.	.	4fff)	.
=232	=232	=232	=232	=232
.	8c)	(>2aa-X	.	.
.	(>8cL	.	.	.
.	.	.	(>2fff	sf
4%3r	8ccJ)	.	.	.
.	(>8ccL	.	.	.
.	8cJ)	8.bb-L	.	.
.	8c	.	.	.
.	.	16ggJk)	.	.
.	.	.	8.gggL	.
.	.	.	16eeeJk)	.
=233	=233	=233	=233	=233
.	8fL	8ffL	.	.
.	8F'	8An'J	.	.
.	.	.	4fff	.
*clefG2	*	*	*	*
(>4.cc	8F'	8A'L	.	.
.	8F'	8A'J	.	.
.	.	.	4r	.
.	8F'	8A'L	.	.
16ddLL	8F'J	8A'J	.	.
16ccJJ)	.	.	.	.
.	.	.	4r	.
8bn'L	.	.	.	.
8cc'J	.	.	.	.
=234	=234	=234	=234	=234
.	2F	2.A	.	.
.	.	.	(>4.aa	p
2.cc	.	.	.	.
.	.	.	16bb-LL	.
.	.	.	16aaJJ)	.
.	.	.	8gg'L	.
.	.	.	8ff'J	.
=235	=235	=235	=235	=235
.	2.G	.	.	.
.	.	2.B-	.	.
.	.	.	4ee	.
(>4.cc	.	.	.	.
.	.	.	4r	.
16ddLL	.	.	.	.
16ccJJ)	.	.	.	.
.	.	.	4r	.
8bn'L	.	.	.	.
8cc'J	.	.	.	.
=236	=236	=236	=236	=236
!!linebreak:original
.	2.G	.	.	.
!!linebreak:original
.	.	8B-L 8e	.	.
.	.	8B- 8e	.	.
!!linebreak:original
!	!	!	!LO:TX:Bi:t=Cresc.	!
.	.	.	(>4.bb-	.
!!linebreak:original
2.cc	.	8B- 8e	.	.
.	.	8B- 8e	.	.
.	.	8B- 8e	.	.
.	.	.	16cccLL	.
.	.	8B-J 8e	.	.
.	.	.	16bb-JJ)	.
.	.	.	8aa'L	.
.	.	.	8gg'J	.
=237	=237	=237	=237	=237
!	!LO:TX:Bi:t=Cresc.	!	!	!
.	2.A	.	.	.
!	!	!LO:TX:Bi:t=Cresc.	!	!
.	.	8cL	.	.
.	.	8c 8f#X	.	.
.	.	.	4ff#X	.
!LO:TX:Bi:t=Cresc.	!	!	!	!
(>4.cc	.	8c 8f#	.	.
.	.	8c 8f#	.	.
.	.	.	4r	.
.	.	8c 8f#	.	.
16ddLL	.	8cJ 8f#	.	.
16ccJJ)	.	.	.	.
.	.	.	4r	.
8bn'L	.	.	.	.
8cc'J	.	.	.	.
=238	=238	=238	=238	=238
.	2.A	.	.	.
.	.	2.c 2.f#X	.	.
.	.	.	[4eee-X	f
(>2ee-X	.	.	.	.
.	.	.	8eee-L]	.
.	.	.	(>16dddL	.
.	.	.	16cccJJ	.
.	.	.	16bb-LL	.
4cc)	.	.	.	.
.	.	.	16aa	.
.	.	.	16gg	.
.	.	.	16ff#XJJ)	.
=239	=239	=239	=239	=239
.	4B-	.	.	.
.	4d	4g	.	.
.	.	.	16gg'LL	fp
4dd	4r	4B- 4g	.	.
.	.	.	16dd'	.
.	.	.	16een'	.
.	.	.	16ff#X'JJ	.
.	.	.	16gg'LL	.
*clefF4	*	*	*	*
4BB-	.	4r	.	.
.	.	.	16aa'	.
.	.	.	16bb-'	.
.	.	.	16aa'JJ	.
.	.	.	16gg'LL	.
4r	.	.	.	.
.	.	.	16dd'	.
.	.	.	16ee'	.
.	.	.	16ff#'JJ	.
=240	=240	=240	=240	=240
!!linebreak:original
.	4%3r	.	.	.
!!linebreak:original
.	.	4%3r	.	.
!!linebreak:original
.	.	.	16ggLL	.
!!linebreak:original
4%3r	.	.	.	.
.	.	.	16aa	.
.	.	.	16bb-	.
.	.	.	16aaJJ	.
.	.	.	16ggLL	.
!	!	!	!LO:TX:Bi:t=Cresc.	!
.	.	.	16dd	.
.	.	.	16ee	.
.	.	.	16ff#XJJ	.
.	.	.	16ggLL	.
.	.	.	16aa	.
.	.	.	16bb-	.
.	.	.	16aaJJ	.
=241	=241	=241	=241	=241
.	4r	.	.	.
.	4r	4r	.	.
.	.	.	16ggLL	.
4r	16r	4r	.	.
.	.	.	16dd	.
!	!LO:TX:Bi:t=Cresc.	!	!	!
.	16DLL	.	.	.
.	.	.	16ee	.
.	16E	.	.	.
.	.	.	16ff#XJJ	.
.	16F#XJJ	.	.	.
.	.	.	16ggLL	.
4r	.	16r	.	.
.	.	.	16aa	.
!	!	!LO:TX:Bi:t=Cresc.	!	!
.	.	16dLL	.	.
.	.	.	16bb-	.
.	.	16e	.	.
.	.	.	16aaJJ	.
.	.	16f#XJJ	.	.
.	.	.	16ggLL	.
16r	.	.	.	.
.	.	.	16dd	.
!LO:TX:Bi:t=Cresc.	!	!	!	!
16DLL	.	.	.	.
.	.	.	16ee	.
16E	.	.	.	.
.	.	.	16ff#JJ	.
16F#XJJ	.	.	.	.
=242	=242	=242	=242	=242
.	16GLL	.	.	.
.	16A	.	.	.
.	16B-	.	.	.
.	16cJJ	.	.	.
.	16dLL	16gLL	.	.
.	16c	16a	.	.
.	16B-	16b-	.	.
.	16AJJ	16ccJJ	.	.
.	.	.	16ggLL	.
16GLL	16GLL	16ddLL	.	.
.	.	.	16aa	.
16A	16Fn	16cc	.	.
.	.	.	16bb-	.
16B-	16E	16b-	.	.
.	.	.	16cccJJ	.
16cJJ	16DJJ	16aJJ	.	.
.	.	.	16dddLL	.
16dLL	.	16gLL	.	.
.	.	.	16ccc	.
16c	.	16fn	.	.
.	.	.	16bb-	.
16B-	.	16e	.	.
.	.	.	16aaJJ	.
16AJJ	.	16dJJ	.	.
.	.	.	16ggLL	.
16GLL	.	.	.	.
.	.	.	16ffn	.
16Fn	.	.	.	.
.	.	.	16ee	.
16E	.	.	.	.
.	.	.	16ddJJ	.
16DJJ	.	.	.	.
=243	=243	=243	=243	=243
!!pagebreak:original
.	4.C	.	.	.
!!pagebreak:original
.	.	(<4.c	.	.
.	(<16DLL	.	.	.
.	16EJJ	.	.	.
!!pagebreak:original
.	.	.	2.cc	f
!!pagebreak:original
(>4.C	16FLL	.	.	.
.	16G	.	.	.
.	16A	16dLL	.	.
.	16BnJJ)	16eJJ	.	.
.	.	16fLL	.	.
.	.	16g	.	.
16DLL	.	16a	.	.
16EJJ	.	16bnJJ)	.	.
16FLL	.	.	.	.
16G	.	.	.	.
16A	.	.	.	.
16BnJJ)	.	.	.	.
=244	=244	=244	=244	=244
.	8cL	.	.	.
.	8B-X	.	.	.
.	8B-	8ccL	.	.
.	8B-	8e	.	.
.	.	.	2.gg	.
8cL	8B-	8e	.	.
8C	8B-J	8e	.	.
8C	.	8e	.	.
8C	.	8eJ	.	.
8C	.	.	.	.
8CJ	.	.	.	.
=245	=245	=245	=245	=245
.	4A'	.	.	.
.	(<4.A	(<4f'	.	.
.	.	.	4ff'	.
4F'	.	4.c~	.	.
.	8G)	.	.	.
.	.	.	4.f	fp
4r	.	.	.	.
.	.	8c')	.	.
4r	.	.	.	.
.	.	.	8e	.
=246	=246	=246	=246	=246
.	(<8GL	.	.	.
.	8E)	.	.	.
.	(<8E	(<8cL	.	.
.	8F)	8g)	.	.
.	.	.	(<8eL	.
4%3r	(<8F	(<8g	.	.
.	.	.	8b-J)	.
.	8B-J)	8f)	.	.
.	.	.	(<8b-L	.
.	.	8f	.	.
.	.	.	8aJ)	.
.	.	8fJ	.	.
.	.	.	(>8aL	.
.	.	.	8ddJ)	.
=247	=247	=247	=247	=247
.	(<8B-L	.	.	.
.	8AJ)	.	.	.
.	(>8AL	8fL	.	.
.	8b-)	8f	.	.
.	.	.	(>8ddL	.
4%3r	(>8b-	(<8f~	.	.
.	.	.	8cc)	.
.	8gJ)	8cc)	.	.
.	.	.	(>8cc	.
.	.	(<8cc	.	.
.	.	.	8ff)	.
.	.	8b-J)	.	.
.	.	.	(>8ff	.
.	.	.	8eeJ)	.
=248	=248	=248	=248	=248
!!linebreak:original
.	(>8gL	.	.	.
.	8eJ)	.	.	.
!!linebreak:original
.	4e	(<8b-L	.	.
.	.	8gJ)	.	.
!!linebreak:original
.	.	.	(>8eeL	.
!!linebreak:original
4%3r	4r	4g	.	.
.	.	.	8bb-J)	.
.	.	.	4bb-	.
.	.	4r	.	.
.	.	.	4r	.
=249	=249	=249	=249	=249
.	4%3r	.	.	.
.	.	4%3r	.	.
.	.	.	4%3r	.
4%3r	.	.	.	.
=250	=250	=250	=250	=250
.	2.c	.	.	.
.	.	2.f	.	.
.	.	.	[4a	pp
2.F	.	.	.	.
.	.	.	(<8aL]	.
.	.	.	16b-L	.
.	.	.	16aJJ	.
.	.	.	8g'L)	.
.	.	.	8a'J	.
=251	=251	=251	=251	=251
.	[2.G	.	.	.
.	.	[2.f	.	.
.	.	.	[2.dd	fp
[2.BB-	.	.	.	.
=252	=252	=252	=252	=252
.	(<4G]	.	.	.
.	4A'	4f]	.	.
.	.	.	(>4dd]	.
(<4BB-]	4G'	4f'	.	.
.	.	.	4cc')	.
4C')	.	4B-'	.	.
.	.	.	4e'	.
4CC'	.	.	.	.
=253	=253	=253	=253	=253
.	4F')	.	.	.
.	(>4.a	4A	.	.
.	.	.	4f'	.
4FF'	.	(>4.cc	.	.
.	8g)	.	.	.
.	.	.	(>4.ff	fp
4r	.	.	.	.
.	.	8b-)	.	.
4r	.	.	.	.
.	.	.	8ee)	.
=254	=254	=254	=254	=254
.	(>8gL	.	.	.
.	8eJ)	.	.	.
.	(>8eL	(<8b-L	.	.
.	8fJ)	8g)	.	.
.	.	.	(>8eeL	.
4%3r	(>8fL	8g	.	.
.	.	.	8bb-)	.
.	8b-J)	8a)	.	.
.	.	.	(>8bb-	.
.	.	(<8a	.	.
.	.	.	8aa)	.
.	.	8ffJ)	.	.
.	.	.	(>8aa	.
.	.	.	8dddJ)	.
=255	=255	=255	=255	=255
!!linebreak:original
.	(>8b-L	.	.	.
.	8aJ)	.	.	.
!!linebreak:original
.	(>8AL	8ffL	.	.
.	8aJ)	8ff	.	.
!!linebreak:original
.	.	.	(>8ddL	.
!!linebreak:original
4%3r	(>8aL	(>8ff)	.	.
.	.	.	8ccJ)	.
.	8gJ)	(>8cc	.	.
.	.	.	(>8ccL	.
.	.	8cc	.	.
.	.	.	8ffJ)	.
.	.	8b-J)	.	.
.	.	.	(>8ffL	.
.	.	.	8eeJ)	.
=256	=256	=256	=256	=256
.	(>8gL	.	.	.
.	8eJ)	.	.	.
.	4e	(>8b-L	.	.
.	.	8aaJ)	.	.
.	.	.	(>8eeeL	.
4%3r	4r	4gg	.	.
.	.	.	8bbb-J)	.
.	.	.	4bbb-	.
.	.	4r	.	.
.	.	.	4r	.
=257	=257	=257	=257	=257
.	4%3r	.	.	.
.	.	4%3r	.	.
.	.	.	4%3r	.
4%3r	.	.	.	.
=258	=258	=258	=258	=258
.	2.f	.	.	.
.	.	2.c	.	.
.	.	.	2.A-X 2.a-X	sf
2.F	.	.	.	.
=259	=259	=259	=259	=259
.	2.d-X	.	.	.
.	.	2.f	.	.
.	.	.	2.A-X 2.a-X	sf
2.D-X	.	.	.	.
=260	=260	=260	=260	=260
.	2Bn	.	.	.
.	.	2d 2f	.	.
.	.	.	2A-X 2a-X	sf
2BBn	4B-X	.	.	.
.	.	4d 4f	.	.
.	.	.	4A- 4a-	sf
4BB-X	.	.	.	.
=261	=261	=261	=261	=261
.	4A'	.	.	.
.	4d'	4d' 4f	.	.
.	.	.	4An 4an	ff
4AA'	4B-'	4g'	.	.
.	.	.	4b-'	.
4GG'	.	4e'	.	.
.	.	.	4g'	.
4C'	.	.	.	.
=262	=262	=262	=262	=262
!!pagebreak:original
.	8AL	.	.	.
.	8c	.	.	.
!!pagebreak:original
.	8c	8fL	.	.
.	8c	8AJ 8f	.	.
!!pagebreak:original
.	.	.	4f'	.
!!pagebreak:original
(>4.F	8c	8AL 8f	.	.
.	8cJ	8AJ 8f	.	.
.	.	.	4r	.
.	.	8AL 8f	.	.
16GLL	.	8AJ 8f	.	.
16FJJ)	.	.	.	.
.	.	.	4r	.
8E'L	.	.	.	.
8F'J	.	.	.	.
=263	=263	=263	=263	=263
.	2.c	.	.	.
.	.	2.A 2.f	.	.
.	.	.	4r	.
4FF	.	.	.	.
.	.	.	4a	p
4r	.	.	.	.
.	.	.	4a	.
4r	.	.	.	.
=264	=264	=264	=264	=264
.	2.c	.	.	.
.	.	2.B- 2.g	.	.
.	.	.	(>4cc)	.
(>4.F	.	.	.	.
.	.	.	4b-)	.
16GLL	.	.	.	.
16FJJ)	.	.	.	.
.	.	.	4r	.
8E'L	.	.	.	.
8F'J	.	.	.	.
=265	=265	=265	=265	=265
.	2c	.	.	.
.	.	2.B- 2.g	.	.
.	.	.	4r	.
4FF	.	.	.	.
.	.	.	4ee	.
4r	.	.	.	.
.	.	.	4ee	.
4r	.	.	.	.
=266	=266	=266	=266	=266
.	2c	.	.	.
.	.	8AL 8f	.	.
.	.	8f 8a	.	.
.	.	.	(>8ffL)	.
(>16GLL	.	8f 8a	.	.
16F	.	.	.	.
.	.	.	8aaJ)	.
16E	.	8f 8a	.	.
16FJJ)	.	.	.	.
.	.	.	4cc	.
(>16GLL	.	8f 8a	.	.
16F	.	.	.	.
16E	.	8fJ 8a	.	.
16FJJ)	.	.	.	.
.	.	.	4r	.
(>16GLL	.	.	.	.
16F	.	.	.	.
16E	.	.	.	.
16FJJ)	.	.	.	.
=267	=267	=267	=267	=267
!!linebreak:original
.	2c	.	.	.
!!linebreak:original
.	.	2.f 2.a	.	.
!!linebreak:original
.	.	.	(>16bb-LL	.
!!linebreak:original
4FF	.	.	.	.
.	.	.	16aa	.
.	.	.	16gg	.
.	.	.	16aaJJ)	.
.	.	.	(>16bb-LL	.
4r	.	.	.	.
.	.	.	16aa	.
.	.	.	16gg	.
.	.	.	16aaJJ)	.
.	.	.	(>16bb-LL	.
4r	.	.	.	.
.	.	.	16aa	.
.	.	.	16gg	.
.	.	.	16aaJJ)	.
=268	=268	=268	=268	=268
.	2.c	.	.	.
.	.	2.g 2.b-	.	.
.	.	.	(>4ccc	.
(>16GLL	.	.	.	.
16F	.	.	.	.
16E	.	.	.	.
16FJJ)	.	.	.	.
.	.	.	4bb-)	.
(>16GLL	.	.	.	.
16F	.	.	.	.
(>16E	.	.	.	.
16FJJ)	.	.	.	.
.	.	.	4r	.
16GLL	.	.	.	.
16F	.	.	.	.
16E	.	.	.	.
16FJJ)	.	.	.	.
=269	=269	=269	=269	=269
.	2.c	.	.	.
.	.	2.g 2.b-	.	.
.	.	.	(>16fffLL	.
4FF	.	.	.	.
.	.	.	16eee	.
.	.	.	16ddd	.
.	.	.	16eeeJJ)	.
.	.	.	(>16fffLL	.
4r	.	.	.	.
.	.	.	16eee	.
.	.	.	16ddd	.
.	.	.	16eeeJJ)	.
.	.	.	(>16fffLL	.
4r	.	.	.	.
.	.	.	16eee	.
.	.	.	16ddd	.
.	.	.	16eeeJJ)	.
=270	=270	=270	=270	=270
!!linebreak:original
.	4c'	.	.	.
.	4c'	.	.	.
.	4r	.	.	.
!!linebreak:original
.	.	4f' 4a	.	.
!!linebreak:original
.	.	.	8fff'L	.
!!linebreak:original
4FF'	.	4f' 4a	.	.
.	.	.	16eee'L	.
.	.	.	16ddd'JJ	.
.	.	.	16ccc'LL	.
4F'	.	4r	.	.
.	.	.	16bb-'	.
.	.	.	16aa'	.
.	.	.	16gg'JJ	.
.	.	.	16ff'LL	.
4r	.	.	.	.
.	.	.	16ccc'	.
.	.	.	16bb-'	.
.	.	.	16aa'JJ	.
=271	=271	=271	=271	=271
.	4%3r	.	.	.
.	.	4%3r	.	.
!	!	!	!LO:TX:Bi:t=Cresc.	!
.	.	.	16ggLL	.
4%3r	.	.	.	.
.	.	.	16ff	.
.	.	.	16ee	.
.	.	.	16ddJJ	.
.	.	.	16ccLL	.
.	.	.	16aa	.
.	.	.	16gg	.
.	.	.	16ffJJ	.
.	.	.	16eeLL	.
.	.	.	16dd	.
.	.	.	16cc	.
.	.	.	16b-JJ	.
=272	=272	=272	=272	=272
.	16r	.	.	.
!	!LO:TX:Bi:t=Cresc.	!	!	!
.	16fLL	.	.	.
.	16e	.	.	.
.	16dJJ	.	.	.
.	16cLL	.	.	.
.	16B-	.	.	.
.	16A	.	.	.
.	16GJJ	.	.	.
.	16FLL	.	.	.
.	16f	.	.	.
.	16e	.	.	.
.	16dJJ	.	.	.
.	.	16r	.	.
!	!	!LO:TX:Bi:t=Cresc.	!	!
.	.	16ffLL	.	.
.	.	16ee	.	.
.	.	16ddJJ	.	.
.	.	.	16aLL	.
16r	.	16ccLL	.	.
.	.	.	16ff	.
!LO:TX:Bi:t=Cresc.	!	!	!	!
16FLL	.	16b-	.	.
.	.	.	16ee	.
16E	.	16a	.	.
.	.	.	16ddJJ	.
16DJJ	.	16gJJ	.	.
.	.	.	16ccLL	.
16CLL	.	16fLL	.	.
.	.	.	16b-	.
16BB-	.	16ff	.	.
.	.	.	16a	.
16AA	.	16ee	.	.
.	.	.	16gJJ	.
16GGJJ	.	16ddJJ	.	.
.	.	.	16fLL	.
16FFLL	.	.	.	.
.	.	.	16ff	.
16F	.	.	.	.
.	.	.	16ee	.
16E	.	.	.	.
.	.	.	16ddJJ	.
16DJJ	.	.	.	.
=273	=273	=273	=273	=273
!!pagebreak:original
.	16cLL	.	.	.
.	16B-	.	.	.
.	16A	.	.	.
.	16GJJ	.	.	.
.	(<16FLL	.	.	.
.	16E	.	.	.
.	16F	.	.	.
.	16EJJ	.	.	.
.	16FLL	.	.	.
.	16E	.	.	.
.	16F	.	.	.
.	16EJJ)	.	.	.
!!pagebreak:original
.	.	16ccLL	.	.
.	.	16b-	.	.
.	.	16a	.	.
.	.	(<16gJJ	.	.
!!pagebreak:original
.	.	.	16ccLL	.
!!pagebreak:original
16CLL	.	16fLL	.	.
.	.	.	16b-	.
16BB-	.	16e	.	.
.	.	.	16a	.
16AA	.	16f	.	.
.	.	.	16gJJ	.
16GGJJ	.	16eJJ)	.	.
.	.	.	(<16fLL	.
(<16FFLL	.	(<16fLL	.	.
.	.	.	16e	.
16EE	.	16e	.	.
.	.	.	16f	.
16FF	.	16f	.	.
.	.	.	16eJJ)	.
16EEJJ)	.	16eJJ)	.	.
.	.	.	(<16fLL	.
16FFLL	.	.	.	.
.	.	.	16e	.
16EE	.	.	.	.
.	.	.	16f	.
16FF	.	.	.	.
.	.	.	16eJJ)	.
16EEJJ)	.	.	.	.
=274	=274	=274	=274	=274
.	4F'	.	.	.
.	4G'	.	.	.
.	4A'	.	.	.
.	.	4f'	.	.
.	.	.	4f'	ff
4FF'	.	4g'	.	.
.	.	.	4g'	.
4GG'	.	4a'	.	.
.	.	.	4a'	.
4AA'	.	.	.	.
=275	=275	=275	=275	=275
.	4B-'	.	.	.
.	4c'	.	.	.
.	4d'	.	.	.
.	.	4B-'	.	.
.	.	.	4b-'	.
4BB-'	.	4c'	.	.
.	.	.	4cc'	.
4C'	.	4d'	.	.
.	.	.	4dd'	.
4D'	.	.	.	.
=276	=276	=276	=276	=276
.	[2.e-X	.	.	.
.	.	[2.e-X	.	.
.	.	.	[2.ee-X	.
[2.E-X	.	.	.	.
=277	=277	=277	=277	=277
.	2.e-;]	.	.	.
.	.	2.e-;]	.	.
.	.	.	2.ee-;]	.
2.E-;]	.	.	.	.
=278	=278	=278	=278	=278
.	4D'	.	.	.
.	4En'	.	.	.
.	4F#X'	.	.	.
.	.	4d'	.	.
.	.	.	4d'	ff
4DD'	.	4en'	.	.
.	.	.	4en'	.
4EEn'	.	4f#X'	.	.
.	.	.	4f#X'	.
4FF#X'	.	.	.	.
=279	=279	=279	=279	=279
.	4G'	.	.	.
.	4A'	.	.	.
.	4B-'	.	.	.
.	.	4G'	.	.
.	.	.	4g'	.
4GG'	.	4A'	.	.
.	.	.	4a'	.
4AA'	.	4B-'	.	.
.	.	.	4b-'	.
4BB-'	.	.	.	.
=280	=280	=280	=280	=280
!!linebreak:original
.	[2.c	.	.	.
!!linebreak:original
.	.	[2.c	.	.
!!linebreak:original
.	.	.	[2.cc	sf
!!linebreak:original
[2.C	.	.	.	.
=281	=281	=281	=281	=281
.	2.c;]	.	.	.
.	.	2.c;]	.	.
.	.	.	2.cc;]	.
2.C;]	.	.	.	.
=282	=282	=282	=282	=282
.	4%3r	.	.	.
.	.	4G'	.	.
.	.	.	8ff'L	pp
4%3r	.	4A'	.	.
.	.	.	(>16ggL	.
.	.	.	16ffJJ)	.
.	.	.	8ee'L	.
.	.	4Bn'	.	.
.	.	.	(>16ffL	.
.	.	.	16eeJJ)	.
.	.	.	8ddL	.
.	.	.	(>16eeL	.
.	.	.	16ddJJ)	.
=283	=283	=283	=283	=283
.	4%3r	.	.	.
.	.	4c'	.	.
.	.	.	8cc'L	.
4%3r	.	4d'	.	.
.	.	.	(>16ddL	.
.	.	.	16ccJJ)	.
.	.	.	8b-L	.
.	.	4e'	.	.
.	.	.	(>16ccL	.
.	.	.	16b-JJ)	.
.	.	.	8a'L	.
.	.	.	(<16b-L	.
.	.	.	16aJJ)	.
=284	=284	=284	=284	=284
.	4%3r	.	.	.
.	.	(<4f	.	.
.	.	.	(<4.g	.
4%3r	.	4d)	.	.
.	.	4Bn	.	.
.	.	.	16aLL	.
.	.	.	16gJJ)	.
.	.	.	8f#X'L	.
.	.	.	8g'J	.
=285	=285	=285	=285	=285
.	(<4.G	.	.	.
.	16ALL	.	.	.
.	16GJJ)	.	.	.
.	8F#X'L	.	.	.
.	8G'J	.	.	.
.	.	4G	.	.
.	.	.	(>4ddd	.
(>4BBn	.	4r	.	.
.	.	.	4bbn	.
4D	.	4r	.	.
.	.	.	4ffn)	.
4GG)	.	.	.	.
=286	=286	=286	=286	=286
!!linebreak:original
.	4C'	.	.	.
.	4D'	.	.	.
.	4E'	.	.	.
!!linebreak:original
.	.	8b-'L	.	.
.	.	(>16ccL	.	.
.	.	16b-JJ)	.	.
!!linebreak:original
.	.	.	4ee	.
!!linebreak:original
4C	.	8a'L	.	.
.	.	(<16b-L	.	.
.	.	16aJJ)	.	.
.	.	.	4r	.
4r	.	8gL	.	.
.	.	(<16aL	.	.
.	.	16gJJ)	.	.
.	.	.	4r	.
4r	.	.	.	.
=287	=287	=287	=287	=287
.	4F'	.	.	.
.	4G'	.	.	.
.	4A'	.	.	.
.	.	8f'L	.	.
.	.	(<16gL	.	.
.	.	16fJJ)	.	.
.	.	.	4%3r	.
4%3r	.	8e'L	.	.
.	.	(<16fL	.	.
.	.	16eJJ)	.	.
.	.	8d'L	.	.
.	.	(<16eL	.	.
.	.	16dJJ)	.	.
=288	=288	=288	=288	=288
.	(<4B-	.	.	.
.	4G	.	.	.
.	4D)	.	.	.
.	.	(<4.c	.	.
.	.	.	4%3r	.
4%3r	.	.	.	.
.	.	16dLL	.	.
.	.	16c'JJ)	.	.
.	.	8Bn'L	.	.
.	.	8c'J	.	.
=289	=289	=289	=289	=289
.	(>4.C	.	.	.
.	16dLL	.	.	.
.	16cJJ)	.	.	.
.	8Bn'L	.	.	.
.	8c'J	.	.	.
.	.	4b-X	.	.
.	.	.	(>4gg	.
(<4CC	.	4r	.	.
.	.	.	4ee	.
4EE	.	4r	.	.
.	.	.	4b-)	.
4GG)	.	.	.	.
=290	=290	=290	=290	=290
.	(>4c	.	.	.
.	4A	.	.	.
.	4F)	.	.	.
.	.	(<4.c	.	.
.	.	.	4f 4a	.
4C	.	.	.	.
.	.	16dLL	.	.
.	.	16cJJ)	.	.
.	.	.	4r	.
4r	.	8Bn'L	.	.
.	.	8c'J	.	.
.	.	.	4r	.
4r	.	.	.	.
=291	=291	=291	=291	=291
!!pagebreak:original
.	(>4.C	.	.	.
.	16dLL)	.	.	.
.	16cJJ	.	.	.
.	8Bn'L	.	.	.
.	8c'J	.	.	.
!!pagebreak:original
.	.	4a	.	.
!!pagebreak:original
.	.	.	(>4aa	.
!!pagebreak:original
(<4CC	.	4r	.	.
.	.	.	4ff	.
4FF	.	4r	.	.
.	.	.	4cc)	.
4AA)	.	.	.	.
=292	=292	=292	=292	=292
!	!LO:TX:Bi:t=Cresc.	!	!	!
.	(>4g	.	.	.
.	4e	.	.	.
.	4c)	.	.	.
.	.	4%3r	.	.
!	!	!	!LO:TX:Bi:t=Cresc.	!
.	.	.	(>4.b-	.
4C	.	.	.	.
4r	.	.	.	.
.	.	.	16ccLL	.
.	.	.	16b-JJ)	.
.	.	.	8a'L	.
4r	.	.	.	.
.	.	.	8b-'J	.
=293	=293	=293	=293	=293
.	(>4ee	.	.	.
.	4b-	.	.	.
.	4g)	.	.	.
!	!	!LO:TX:Bi:t=Cresc.	!	!
.	.	(>4gg	.	.
.	.	.	(>4bb-	.
!LO:TX:Bi:t=Cresc.	!	!	!	!
(<4CC	.	4ee	.	.
.	.	.	4gg	.
4C	.	4bn)	.	.
.	.	.	4ee)	.
4C#X)	.	.	.	.
=294	=294	=294	=294	=294
.	2.f	.	.	.
.	.	2.a	.	.
.	.	.	(>[4ff	.
2.D	.	.	.	.
.	.	.	8ffL]	.
.	.	.	16ggL	.
.	.	.	16ffJJ)	.
.	.	.	8ee'L	.
.	.	.	8ff'J	.
=295	=295	=295	=295	=295
.	2.B-	.	.	.
.	.	2.cc#X	.	.
.	.	.	2.gg	sf
2.E	.	.	.	.
=296	=296	=296	=296	=296
.	2e-X	.	.	.
.	.	2.ccn	.	.
.	.	.	[4aa	.
2.F#X	.	.	.	.
.	.	.	(>8aaL]	.
.	.	.	16bb-L	.
.	.	.	16aaJJ)	.
.	.	.	8gg'L	.
.	.	.	8aa'J	.
=297	=297	=297	=297	=297
!!linebreak:original
.	2.d	.	.	.
!!linebreak:original
.	.	2.b-	.	.
!!linebreak:original
.	.	.	2.bb-	sf
!!linebreak:original
2.G	.	.	.	.
=298	=298	=298	=298	=298
.	2.g	.	.	.
.	.	2.ee-X	.	.
.	.	.	[4ccc	.
2.A	.	.	.	.
.	.	.	(>8cccL]	.
.	.	.	16dddL	.
.	.	.	16cccJJ)	.
.	.	.	8bb-'L	.
.	.	.	8ccc'J	.
=299	=299	=299	=299	=299
.	2.f	.	.	.
.	.	2.a-X	.	.
.	.	.	2.ddd	sf
2.Bn	.	.	.	.
=300	=300	=300	=300	=300
.	(>4.f	.	.	.
.	16gLL	.	.	.
.	16fJJ)	.	.	.
.	8e'L	.	.	.
.	8f'J	.	.	.
.	.	(<4.an	.	.
.	.	.	4r	.
2.c	.	.	.	.
.	.	16b-LL	.	.
.	.	16aJJ	.	.
.	.	.	4cc	pp
.	.	8g'L)	.	.
.	.	8a'J	.	.
.	.	.	4cc	.
=301	=301	=301	=301	=301
.	(>2g	.	.	.
.	4E)	.	.	.
.	.	(>2b-	.	.
.	.	.	(>4.cc	.
(<2C	.	.	.	.
.	.	4G)	.	.
.	.	.	16ddLL	.
.	.	.	16ccJJ)	.
.	.	.	8bn'L	.
4CC)	.	.	.	.
.	.	.	8cc'J	.
=302	=302	=302	=302	=302
.	4F'	.	.	.
.	4C'	.	.	.
.	4C'	.	.	.
.	.	4A'	.	.
.	.	.	4f	.
(<4.FF	.	4A'	.	.
.	.	.	4r	.
.	.	4A'	.	.
16GGLL	.	.	.	.
16FFJJ)	.	.	.	.
.	.	.	4r	.
8EE'L	.	.	.	.
8FF'J	.	.	.	.
=303	=303	=303	=303	=303
!!linebreak:original
.	(<2.D-X	.	.	.
!!linebreak:original
.	.	2.Bn	.	.
!!linebreak:original
.	.	.	(<16fLL	pp
!!linebreak:original
2.FF	.	.	.	.
.	.	.	16e	.
.	.	.	16d	.
.	.	.	16eJJ	.
.	.	.	16fLL	.
.	.	.	16e	.
.	.	.	16d	.
.	.	.	16eJJ	.
.	.	.	16fLL	.
.	.	.	16e	.
.	.	.	16d	.
.	.	.	16eJJ)	.
=304	=304	=304	=304	=304
.	2.C	.	.	.
.	.	4A'	.	.
.	.	.	4f'	.
(<4.FF	.	4f'	.	.
.	.	.	4a'	.
.	.	4f'	.	.
16GGLL	.	.	.	.
16FFJJ)	.	.	.	.
.	.	.	4a'	.
8EE'L	.	.	.	.
8FF'J	.	.	.	.
=305	=305	=305	=305	=305
.	2.D-X)	.	.	.
.	.	(<16fLL	.	.
.	.	16e	.	.
.	.	16d	.	.
.	.	16eJJ	.	.
.	.	.	(>2.b-	.
[2.FF	.	16fLL	.	.
.	.	16e	.	.
.	.	16d	.	.
.	.	16eJJ	.	.
.	.	16fLL	.	.
.	.	16e	.	.
.	.	16d)	.	.
.	.	16eJJ	.	.
=306	=306	=306	=306	=306
.	4C	.	.	.
.	4f'	.	.	.
.	4f'	.	.	.
.	.	4f	.	.
.	.	.	4a)	.
4FF]	.	8r	.	.
.	.	(<16b-LL	.	.
.	.	16aJJ)	.	.
.	.	.	8r	.
4r	.	8g'L	.	.
.	.	.	(>16dd-XLL	.
.	.	8a'J	.	.
.	.	.	16ccJJ)	.
.	.	.	8b-'L	.
4r	.	.	.	.
.	.	.	8cc'J	.
=307	=307	=307	=307	=307
!!pagebreak:original
.	(>16fLL	.	.	.
.	16e	.	.	.
.	16d	.	.	.
.	16eJJ	.	.	.
.	16fLL	.	.	.
.	16e	.	.	.
.	16d	.	.	.
.	16eJJ	.	.	.
.	16fLL	.	.	.
.	16e	.	.	.
.	16d)	.	.	.
.	16eJJ	.	.	.
!!pagebreak:original
.	.	(>2.b-	.	.
!!pagebreak:original
.	.	.	(>2.dd-X	.
!!pagebreak:original
4%3r	.	.	.	.
=308	=308	=308	=308	=308
.	(>4f	.	.	.
.	4cc)	.	.	.
.	4cc'	.	.	.
.	.	4a)	.	.
.	.	.	4cc)	.
4r	.	8r	.	.
.	.	(>16ggLL	.	.
.	.	16ffJJ)	.	.
.	.	.	8r	.
4FF	.	8ee'L	.	.
.	.	.	(>16bb-LL	pp
.	.	8ff'J	.	.
.	.	.	16aaJJ)	.
.	.	.	8gg'L	.
4FF	.	.	.	.
.	.	.	8aa'J	.
=309	=309	=309	=309	=309
!	!LO:TX:Bi:t=Cresc.	!	!	!
.	2.dd-X	.	.	.
!	!	!LO:TX:Bi:t=Cresc.	!	!
.	.	2.gg	.	.
!	!	!	!LO:TX:Bi:t=Cresc.	!
.	.	.	2.bb-	.
!LO:TX:Bi:t=Cresc.	!	!	!	!
(<16FFLL	.	.	.	.
16EE	.	.	.	.
16DD	.	.	.	.
16EEJJ	.	.	.	.
16FFLL	.	.	.	.
16EE	.	.	.	.
16DD	.	.	.	.
16EEJJ	.	.	.	.
16FFLL	.	.	.	.
16EE	.	.	.	.
16DD	.	.	.	.
16EEJJ)	.	.	.	.
=310	=310	=310	=310	=310
!!linebreak:original
.	4cc	.	.	.
.	4r	.	.	.
.	8e'L	.	.	.
.	8f'J	.	.	.
!!linebreak:original
.	.	4ff	.	.
!!linebreak:original
.	.	.	(>8aaL	f
!!linebreak:original
4FF	.	4r	.	.
.	.	.	16bb-L	.
.	.	.	16aaJJ)	.
.	.	.	(>8gg'L	.
4r	.	8ee'L	.	.
.	.	.	8aa'J)	.
.	.	8ff'J	.	.
.	.	.	8ee'L	sf
8E'L	.	.	.	.
.	.	.	8ff'J	.
8F'J	.	.	.	.
=311	=311	=311	=311	=311
.	4c	.	.	.
.	4r	.	.	.
.	8G#X'L	.	.	.
.	8A'J	.	.	.
.	.	4cc	.	.
.	.	.	(>8ccL	.
4C	.	4r	.	.
.	.	.	16ddL	.
.	.	.	16ccJJ)	.
.	.	.	8bn'L	.
4r	.	8g#X'L	.	.
.	.	.	8cc'J	.
.	.	8a'J	.	.
.	.	.	8g#X'L	sf
8GG#X'L	.	.	.	.
.	.	.	8a'J	.
8AA'J	.	.	.	.
=312	=312	=312	=312	=312
.	4F	.	.	.
.	4r	.	.	.
.	8C'L	.	.	.
.	8E'J	.	.	.
.	.	4f	.	.
.	.	.	(<8fL	.
4FF	.	4r	.	.
.	.	.	16gnL	.
.	.	.	16fJJ)	.
.	.	.	8e'L	.
4r	.	8c'L	.	.
.	.	.	8f'J	.
.	.	8e'J	.	.
.	.	.	8c'L	sf
8CC'L	.	.	.	.
.	.	.	8e'J	.
8EE'J	.	.	.	.
=313	=313	=313	=313	=313
.	4F'	.	.	.
.	4F'	.	.	.
.	4r	.	.	.
.	.	4f'	.	.
.	.	.	4f'	.
4FF'	.	4A' 4f	.	.
.	.	.	4a' 4ff	.
4FF'	.	4r	.	.
.	.	.	4r	.
4r	.	.	.	.
==	==	==	==	==
*-	*-	*-	*-	*-
!!!system-decoration: [(s1,s2,s3,s4)]
!!!RDF**kern: > = above
!!!RDF**kern: < = below
